NigerChel/WBC-UR5-Harvest/wbc_ur5/Plots_paper_wbc_joint_limits/joint_positions.csv
Time (s),Joint 1 Position,Joint 2 Position,Joint 3 Position,Joint 4 Position,Joint 5 Position,Joint 6 Position
0.028908967971801758,-0.0002609499274904249,-0.7912739587034615,-1.734694184575792,-0.9657075911584979,1.5975725716641491,0.004255938285094753
0.1326889991760254,-0.00023620410001847617,-0.7912601927984615,-1.7347120356554095,-0.9657056152207051,1.5975588020524607,0.004266649495111823
0.23127293586730957,-0.00023923048288496536,-0.7912596580749803,-1.7346732819258162,-0.9657460043577323,1.5975523033924381,0.004256032954406346
0.3291289806365967,-0.00025176749861471675,-0.7912842893299212,-1.7346808417394557,-0.9657146895727068,1.597546321188578,0.004266424062786419
0.4308319091796875,-0.00023269355679104715,-0.7912596118328217,-1.7347621409835547,-0.9656398631863272,1.5975404055603832,0.004259673768064002
0.5314490795135498,-0.0002529086381280744,-0.7912782062637619,-1.734706238110593,-0.9656902565340058,1.5975658115970508,0.0042680425673309146
0.6294970512390137,-0.0002554234167505075,-0.7912776432544008,-1.7346805582156446,-0.9657167650264656,1.597570613729754,0.004255286370930824
0.7328810691833496,0.7240968384281374,-0.650194260360587,-1.7464414627696634,-1.0822041584222966,0.9387058452299551,0.24105258870358567
0.8288090229034424,0.7240970885193065,-0.6501884710620007,-1.746476545784813,-1.0821607359058283,0.9386969661103806,0.2410272204591844
0.9319050312042236,0.724955304544705,-0.6497858024237143,-1.7465514074133737,-1.0827529506425793,0.9378203171535561,0.24129374321829347
1.032486915588379,0.7289846197698389,-0.6481023646367796,-1.7467950495272542,-1.0853872129743625,0.9338417438738725,0.24245787382927275
1.128870964050293,0.7379876061449628,-0.6442460896801686,-1.7471233350637771,-1.091547070520077,0.925085865833281,0.24530530029176592
1.2327570915222168,0.7509736539220349,-0.6385520328548071,-1.7474863689645148,-1.1007461901953148,0.9124325249947219,0.24953812989637064
1.3286809921264648,0.7700990807392579,-0.6300151494335295,-1.7484485147711812,-1.1139112155984796,0.8937833631207314,0.25570470708226556
1.4311599731445312,0.7919484371180976,-0.6200049825138486,-1.7494860918911292,-1.1292827165378385,0.8725970407400646,0.26296930277300523
1.5291109085083008,0.8195402965020463,-0.606801972687186,-1.7509310483970169,-1.1491102532499369,0.8459927105070899,0.272516415892214
1.632063865661621,0.8476970782705537,-0.5930055545464827,-1.7526122124499266,-1.169459482550822,0.8189167808668935,0.2825026091348998
1.7284109592437744,0.8805601441299888,-0.5765654868409426,-1.7546312781444882,-1.1935446720276972,0.7875802037486781,0.29466693144576667
1.8301219940185547,0.9120973945614376,-0.5605619079196698,-1.756097102151069,-1.2177034362337231,0.7578052126013018,0.30713973915071546
1.9311070442199707,0.9470676850211213,-0.5424886482794631,-1.7578564448397207,-1.2448858233519482,0.724984461639154,0.3215252473668705
2.0293638706207275,0.9795853273568353,-0.5258761939736437,-1.759249702288519,-1.2704862269078732,0.6947834907289269,0.3354721280795505
2.1305320262908936,1.0144681160186382,-0.5082981636861371,-1.7599104247086697,-1.2993481980697774,0.6627492044476423,0.351672374451523
2.2303690910339355,1.0460513655045902,-0.49280500197627686,-1.7603972333799212,-1.325574767551516,0.633922784606524,0.3668770574364849
2.3312110900878906,1.0795257145600767,-0.4772042821409531,-1.7598628939225593,-1.3545945014590104,0.6038040056098837,0.38425209938020677
2.432321071624756,1.109319091384536,-0.46388923707413743,-1.758912235349208,-1.381147726320068,0.5771801985542437,0.40062419888950485
2.530503988265991,1.1428070937507933,-0.45037140481830035,-1.7567058297572333,-1.4119193232804803,0.5477025820786998,0.4204051523293938
2.6325418949127197,1.1681430351902362,-0.4407379023431356,-1.754605057239582,-1.4358769792675747,0.525547864707974,0.436216836259127
2.730588912963867,1.1968476113485607,-0.43141436396564914,-1.7510247917534727,-1.4640292416892142,0.5008129415305171,0.4555542829441659
2.832000970840454,1.222168043753718,-0.4238757820751681,-1.7474708022314034,-1.4896160763131472,0.479157033256163,0.47362324494993535
2.9301979541778564,1.2485348894092394,-0.417412186662337,-1.7427245603818136,-1.517402785197749,0.45697792950480964,0.49389661803398593
3.0311548709869385,1.27179364858878,-0.41261776967503083,-1.7380258391793773,-1.5428056202771443,0.4376223988909484,0.5129575528700681
3.132327079772949,1.2940549098660972,-0.40872234084086906,-1.733239210192495,-1.567797839812386,0.41927929489694926,0.5323785830313694
3.2316229343414307,1.3171822564766702,-0.4058039567177836,-1.7275403584447357,-1.5949020567123604,0.40053319120180364,0.5539140173414633
3.330322027206421,1.339176995487454,-0.40353607210072195,-1.721406784367023,-1.6227442276566415,0.3829953994517794,0.5761778602336717
3.431752920150757,1.3587053061335397,-0.4021270624918911,-1.715844755885519,-1.648033274034286,0.3676308082640924,0.5969614794242812
3.532686948776245,1.3789383685261734,-0.4007713139408602,-1.7098907296381904,-1.6756801477001282,0.35198001412894886,0.6199075577405317
3.6320929527282715,1.396843471152478,-0.3999928635949656,-1.7046570885351886,-1.7008459064836452,0.33834803475377867,0.6413651985486449
3.732210874557495,1.4154444469414376,-0.39918030100370183,-1.6987056407126309,-1.7291040139691574,0.3245347912841467,0.6652037330144445
3.8308370113372803,1.4318577302016289,-0.39850118944437246,-1.693338163192926,-1.7553133355427226,0.3126100965630588,0.687388030602194
3.9307849407196045,1.4489726377915946,-0.3976187447341252,-1.687596256093604,-1.7840484875940372,0.30047877067936235,0.7116954358620264
4.032074928283691,1.464108495137134,-0.3965476381147125,-1.6823823312439967,-1.8108868593016167,0.29007357145182133,0.7342309161055884
4.130663871765137,1.4796649756998956,-0.395262900921827,-1.6769450583936405,-1.840070082137749,0.2796057082816725,0.7587164912769471
4.23115086555481,1.4934851755449516,-0.39388922019419415,-1.6718864782831813,-1.8672960054529284,0.270644878350845,0.7814324776178743
4.33641505241394,1.5078149112353598,-0.39211870504895124,-1.6661171242889574,-1.8973798552940593,0.2618088829291352,0.805845017353074
4.429478883743286,1.5204633785796944,-0.3903187504619823,-1.6608238887686673,-1.9252522111175678,0.2543319184056154,0.8283878090450865
4.532805919647217,1.5335088278232687,-0.388061936488436,-1.6550503255300748,-1.9554846484004746,0.2469778305786568,0.8524074957117873
4.632878065109253,1.544983330473335,-0.3860183199079227,-1.6497256835394642,-1.982937783234953,0.24084470599358243,0.8742365950298137
4.729698896408081,1.556909065209822,-0.3835727107584738,-1.6437411190370015,-2.0127667079796683,0.23488355422398183,0.8975027304750274
4.827828884124756,1.5673661495885747,-0.38135338039700223,-1.6379894422988606,-2.040036145163762,0.23003740076675275,0.9184977008262825
4.9313719272613525,1.5781279673375785,-0.37905850053104523,-1.6315181402217829,-2.0693511555480417,0.22541723847534847,0.9407484480352395
5.028177976608276,1.5876778085348309,-0.3770843337141015,-1.6251744134209707,-2.0961707052598872,0.22176566465172395,0.9608789891060225
5.129868030548096,1.5973874667881398,-0.3752528072467975,-1.6181563622999056,-2.1246639739422455,0.2184357549840104,0.9821711071918304
5.233285903930664,1.6060508274782679,-0.3738022200446815,-1.6112596415843012,-2.1506837709276074,0.2158607981519424,1.0012803838843563
5.328336000442505,1.6149265832257376,-0.3727156850261203,-1.6036677207912007,-2.1779917166397604,0.21358515991820823,1.0215603219961331
5.433018922805786,1.6228110498383583,-0.3719591991788823,-1.5963851557809987,-2.2028163748283287,0.21188001375134802,1.0398484489390543
5.53081202507019,1.630845218991262,-0.3717572442535353,-1.588093832043661,-2.2291362097058314,0.21058560840795892,1.0591644765425245
5.630886077880859,1.6380215315765696,-0.37190530294250435,-1.5803887795550828,-2.2527891318833273,0.2096918938900984,1.0766764062337382
5.731451034545898,1.6454001313797746,-0.37268110600838944,-1.5718253202715515,-2.277806820286727,0.20913685970943802,1.0954310000992753
5.832890033721924,1.6519583905694155,-0.37393357392051874,-1.5636813528902294,-2.300477204880574,0.20893162116707364,1.1125942929526673
5.927767992019653,1.6587037848408075,-0.3759264877703435,-1.554652419287664,-2.3244805563727686,0.20906978455079805,1.130957369460022
6.0328450202941895,1.6647166867051348,-0.3782265072347729,-1.545978675412393,-2.3464336380977033,0.20947710385371515,1.1477091474973404
6.131824970245361,1.670949307763807,-0.3811640595838746,-1.5365809712252054,-2.369769661291581,0.21020910149553182,1.165902074431277
6.228221893310547,1.6764488247405394,-0.3843457601192394,-1.5279879463255828,-2.3906740430951476,0.21106247194399783,1.1825781470053016
6.329745054244995,1.6822589061569004,-0.38807031154706223,-1.5186563054904987,-2.4130269721894324,0.2121897098148022,1.2006079047943428
6.430325031280518,1.6873605418635282,-0.39180714875786476,-1.5099798108522655,-2.4333777075575114,0.21345115311401852,1.2171971807523687
6.532289981842041,1.6926531293470028,-0.3962641124719621,-1.50049349670661,-2.4551411691082503,0.21502873620826157,1.235100109656224
6.630913972854614,1.6973920651788479,-0.40064020229050856,-1.4917687172908307,-2.475073391137007,0.21665653413361763,1.25171787232506
6.732023000717163,1.7023893788813262,-0.40563039180316285,-1.4823477405968328,-2.4964787023831114,0.21858516467231523,1.2698648474619953
6.8295509815216064,1.7067557689891437,-0.4105606137514182,-1.473845442372996,-2.5157416960121495,0.22048380440125623,1.2865346040485033
6.931503057479858,1.7113546524428775,-0.4158645249949512,-1.464455700193924,-2.5366978893982677,0.22271987601395388,1.304505476932307
7.033236026763916,1.7154554086191507,-0.4205721761834073,-1.455948984511747,-2.5559889428849325,0.22491068547447635,1.3209771688268892
7.129549980163574,1.719810901226649,-0.42594662298184527,-1.446762856761398,-2.576731400199889,0.22741616506494264,1.3389732355670458
7.229501008987427,1.7236732986311643,-0.43106515152774455,-1.4381694840350367,-2.5959677605539504,0.22989153866636214,1.3556053293989816
7.333607912063599,1.6608689367208216,-0.4492448839507953,-1.4366325083136444,-2.521820902622209,0.2615715937184126,1.29193321063405
7.4302449226379395,1.6668562399778102,-0.45329251913420826,-1.4284269547006565,-2.543280334229514,0.2622979089571011,1.3104704543976242
7.531275033950806,1.672983081880543,-0.4579614380583535,-1.4194139286765177,-2.566192930980914,0.26338916061144074,1.3301564396834784
7.63313102722168,1.677968611958954,-0.46221853577188377,-1.4112195447782072,-2.586578926153938,0.2647341843909331,1.347453074163935
7.73050594329834,1.682446230891678,-0.4667478640248254,-1.4028707524576818,-2.606939889506656,0.26654244337955324,1.364879566471054
7.83146595954895,1.6857974205348227,-0.47108416499060723,-1.3954598920610106,-2.6245068999258176,0.26856429628739387,1.3800260734742367
7.933168888092041,1.6885090183648799,-0.4757085516407613,-1.3879544376543833,-2.6418609054079254,0.27106486151126596,1.3950908375632454
8.033359050750732,1.6903181392881605,-0.479941941100542,-1.3812615479942327,-2.6566469161181243,0.27359854453024457,1.4079055832064256
8.131359100341797,1.691598037276003,-0.4845458915311057,-1.3742500096593084,-2.6715528767883496,0.27655948299501387,1.4206533434483044
8.231956005096436,1.6922247705790732,-0.4887825940597003,-1.368188059215715,-2.684108078317486,0.27945939364133693,1.4317151937280355
8.332594871520996,1.6925362322661612,-0.4933054917401519,-1.3617771422090563,-2.697016635503317,0.2826633930833652,1.4429207958204593
8.432265996932983,1.6926930346522067,-0.49740777962947824,-1.3556369959545036,-2.708733217929991,0.2856834142359685,1.452667736250182
8.532289028167725,1.6927279193136426,-0.5017644939500496,-1.3494390808187713,-2.720686024761681,0.28891428878279757,1.4630127257232903
8.630307912826538,1.69263219485018,-0.5060094260064502,-1.3436403020055676,-2.731417345043011,0.2919390473804751,1.4722517245072861
8.729888916015625,1.692277395221922,-0.510350651544854,-1.337622145237184,-2.7423960514690893,0.2951754356058377,1.4817091575388943
8.831752061843872,1.6919887931081983,-0.5145470613484123,-1.3317293983960241,-2.7527328474201056,0.29814456831503877,1.490289660019363
8.930620908737183,1.6917299560639594,-0.518841121924156,-1.3257335655423659,-2.763470040880701,0.3012546761673267,1.499423049764701
9.031941890716553,1.6914818344447349,-0.5230045300001376,-1.320200731353178,-2.773157653050615,0.30408287348721175,1.507814535516503
9.13277006149292,1.6912793129119608,-0.5274085088725389,-1.3143206688748297,-2.7835380128065603,0.307060630911774,1.5168220511331105
9.228991985321045,1.691130844745371,-0.5313325143890192,-1.3087861161978824,-2.793081652347678,0.30973917276012275,1.524786938260711
9.332365989685059,1.6910146419141028,-0.5358309589751244,-1.3028644099644784,-2.8032273118339606,0.3125644085551431,1.5334817834131915
9.432733058929443,1.6910017834040854,-0.5397171685883224,-1.2975961603271005,-2.8123609563695497,0.315091496586115,1.541370284817617
9.531742095947266,1.6909449916515085,-0.544022705002044,-1.2918981206680784,-2.822077122234904,0.31777791718113835,1.5496948437905211
9.632097005844116,1.6908672452900144,-0.5480010402837345,-1.2867844246727675,-2.8307790261922934,0.32017091783264956,1.5572497142921413
9.731826066970825,1.6908743889066908,-0.5520646991077568,-1.2813248155175767,-2.840046221327469,0.32269152952000185,1.5652201036272717
9.82867693901062,1.690893557611439,-0.5560097866897578,-1.2763677264998738,-2.848402619139743,0.3249480472853084,1.5725072622833527
9.929199934005737,1.6908359324369167,-0.5601060636916969,-1.2712531660002278,-2.8570102597241553,0.3273398778916561,1.5801749528408733
10.032459020614624,1.6908827231261465,-0.5637529920548092,-1.2666402909673,-2.8648658554615203,0.32947477274962733,1.587181711925513
10.13125205039978,1.6908636734816762,-0.5677553282452156,-1.2615468484212327,-2.873306001761375,0.3317505002406761,1.594401639416993
10.229935884475708,1.6908862949344847,-0.5711150276612675,-1.2570622664706759,-2.8809578069094104,0.33374232858031067,1.600881511284119
10.330168962478638,1.6908672452900144,-0.5748749945976117,-1.2523936209901014,-2.8887913750317677,0.3358845097172235,1.6078622399356721
10.431745052337646,1.690930585357878,-0.5783438535239568,-1.2481225922948016,-2.895953780874299,0.3378014637308204,1.6141789727431721
10.530272006988525,1.6909270135495398,-0.5818487278396787,-1.2437495021217093,-2.903332717166616,0.33981296688214413,1.6207375224879597
10.632283926010132,1.6910279766652319,-0.5849009780988788,-1.2396965038302983,-2.910303353745263,0.34161997403836153,1.6267428633420733
10.733064889907837,1.6910973888072702,-0.5882988398913012,-1.2353435877202743,-2.917687659702234,0.3435234361074869,1.6330850785211481
10.831463098526001,1.6910625041458343,-0.5912502057422964,-1.231523338890074,-2.9241476172828094,0.3452269202285287,1.6386132939228815
10.933634042739868,1.6910505981180404,-0.5943260075904258,-1.2276042647140626,-2.930849033392424,0.3470211143023604,1.6445224316230604
11.031116008758545,1.6910505981180404,-0.5972625055869626,-1.2239504587610737,-2.936983675140522,0.34863615644251594,1.649890532609689
11.132137060165405,1.6910541699263784,-0.6002186394230006,-1.2201818353830463,-2.943465424205041,0.35032777898216483,1.6555378594551522
11.231698036193848,1.6910386920902465,-0.6027663882873332,-1.2168143963733795,-2.9492688400786093,0.3518341278890663,1.6605254451667482
11.329101085662842,1.6910386920902465,-0.605679405537832,-1.2131691562707978,-2.9553708803347876,0.35344983241126926,1.6658618685350848
11.430953979492188,1.6910228570732806,-0.6082137859985443,-1.2098625082832328,-2.9610065824864944,0.3548773579583654,1.670624122217918
11.533844947814941,1.6910146419141028,-0.610784295367009,-1.2065305779637587,-2.9668387405175176,0.35635270147987846,1.6756932643724385
11.63208293914795,1.6910386920902465,-0.6131189934123904,-1.203523911280139,-2.9720083462070357,0.3576898962565735,1.6802139038084354
11.728965997695923,1.6910351202819083,-0.6156993484380339,-1.2003054182213475,-2.9774721526803547,0.3591091954846412,1.6850063733254017
11.831675052642822,1.6910541699263784,-0.6179044151245545,-1.197398224098683,-2.9825450821052386,0.36035661545064884,1.6893021520197875
11.932015895843506,1.6910696477625105,-0.6202789220407855,-1.1943475895344884,-2.9878118534104643,0.36167917151022,1.6938856505047257
12.02920389175415,1.6910423829588626,-0.6224386894730813,-1.1916090670929982,-2.9924028914994243,0.3628707336017608,1.6978994786820798
12.133027076721191,1.6910505981180404,-0.6245852441173695,-1.188761761856302,-2.9974429645276115,0.3640565485201904,1.7021248456415075
12.230983018875122,1.6910541699263784,-0.6266964867674066,-1.186221489697937,-3.001763283892929,0.3651555316708237,1.7060046593251046
12.330487966537476,1.6910470263097022,-0.6288478946611807,-1.1835061484770568,-3.006434103538299,0.36631319909464316,1.7100578182802806
12.43346095085144,1.691093816998932,-0.6307161575365807,-1.1810557117527931,-3.0107202309730647,0.36732877794187524,1.7137154914636001
12.532474994659424,1.691090245190594,-0.6327737704368879,-1.178610752559885,-3.0148951928112675,0.3683935441593624,1.7175714730205003
12.63100290298462,1.691058932337496,-0.6345842164052625,-1.1763575876866996,-3.018778582116746,0.3693559022355752,1.7210077459939426
12.731422901153564,1.6910744101736281,-0.6365805223953103,-1.1739526813116528,-3.0229128761456376,0.37033338978889263,1.7246326168046702
12.829088926315308,1.6910865543219777,-0.6383027213352505,-1.1717428548437023,-3.0267519136212426,0.37122855161467483,1.727875922953797
12.930564880371094,1.6911020321581098,-0.6401395541651326,-1.1695281969325104,-3.030587134802305,0.372142118719906,1.731312503690425
13.032063961029053,1.691105723026726,-0.6417345370633475,-1.16750920968436,-3.0341029170983127,0.3729755795566431,1.7343964916193577
13.132526874542236,1.691105603966448,-0.6434828472571082,-1.1654710986697048,-3.037629904669873,0.3738263263545007,1.737665422234614
13.229947090148926,1.6910758388969633,-0.645064670632441,-1.1635519671300698,-3.0409223725914853,0.374597549080439,1.7405564629547028
13.331435918807983,1.6910948885414336,-0.6466860101447183,-1.1615479374490678,-3.0444231699672932,0.37541731892818997,1.7436343022147007
13.430481910705566,1.6910758388969633,-0.6482473774121784,-1.1597885590846002,-3.0474225454375357,0.3761203035670567,1.7463987779881622
13.529767990112305,1.6911222724053594,-0.6497730548958484,-1.1579132283248863,-3.050727404255646,0.3768777290908537,1.749338577108427
13.631752014160156,1.691130844745371,-0.6510859219801372,-1.1562646812674484,-3.053705702906161,0.37752626758434193,1.7519479853437876
13.733299970626831,1.6911185815367433,-0.652492726069154,-1.1545257065825096,-3.056762741929291,0.3782250647881538,1.7546716782790293
13.833040952682495,1.6911067945692275,-0.6538375745658409,-1.1529700405343357,-3.059435743645723,0.3788474884663317,1.7571259925370881
13.932955026626587,1.6911222724053594,-0.6552584473670443,-1.1513087673618032,-3.062331521472792,0.37949961336254384,1.759756726889287
14.03057599067688,1.6911103663775655,-0.6563992189540601,-1.149854427197131,-3.064996136745309,0.3800556496640938,1.7620515863204982
14.128058910369873,1.6911498943898413,-0.6576904066961073,-1.148285576199855,-3.0677807049811405,0.3806569372163759,1.7645273095175993
14.234257936477661,1.6911185815367433,-0.6588138573831299,-1.1468850381038245,-3.070268360711476,0.3811884737548803,1.7666685141985914
14.331703901290894,1.6911498943898413,-0.6599531222211675,-1.145462883358903,-3.0728970574742034,0.38174669985286297,1.7690206865303981
14.430329084396362,1.6911618004176352,-0.6610528439741639,-1.1441953326499863,-3.075152342798345,0.38223346436887945,1.7711039185734112
14.531574010848999,1.6911546568009588,-0.6621496625498526,-1.1428635668832314,-3.077545191494154,0.3827478011714919,1.773249591779741
14.62846302986145,1.6911618004176352,-0.6631036198837069,-1.1416169905750477,-3.0798199530047645,0.38321725097188114,1.7751875214344053
14.729496955871582,1.691173706445429,-0.6641377071392671,-1.1403795707076967,-3.0821196846256544,0.3836641994648932,1.777245737042493
14.830996036529541,1.691204900238249,-0.6651239784473529,-1.1392696907073145,-3.084110975202217,0.3840979288011815,1.7791633986846154
14.932524919509888,1.6911618004176352,-0.6660844280080874,-1.1380948975134906,-3.086268119066212,0.3845306798742176,1.781059828461648
15.02922797203064,1.6911546568009588,-0.6669209199728984,-1.1370114635637552,-3.088279229166185,0.38492733857555533,1.7827753473836343
15.131922960281372,1.6911356071564887,-0.6679314034516697,-1.135898581921764,-3.090215433925212,0.385349375907408,1.7846090886735309
15.232647895812988,1.691158228609297,-0.6687625689777393,-1.1349387780862894,-3.0920141020454563,0.3856968361657089,1.786264490112236
15.331647872924805,1.6911822787854407,-0.6696170886924194,-1.1338754735518255,-3.093983192064515,0.38608965910482024,1.788018179760655
15.430677890777588,1.6911320353481505,-0.6703677284424673,-1.133000001553469,-3.095632019911823,0.38639502450306884,1.7895005461792965
15.529664039611816,1.6911593001517984,-0.6711551188898792,-1.132009027401942,-3.0975164251056047,0.3867540541946863,1.7911800563866949
15.631659984588623,1.6911629910204145,-0.6719121652889898,-1.1311626166862285,-3.099059773179676,0.3870619751956792,1.7926228586886437
15.731755018234253,1.6912063289615844,-0.6726416925554661,-1.1302249538482134,-3.100853835394214,0.3873944558020527,1.7942010775206707
15.83021593093872,1.691183350327942,-0.6732920062323511,-1.129437010162933,-3.1023825632859037,0.38766927337854273,1.7955530494701262
15.929488897323608,1.691218473109934,-0.6740847691535518,-1.1285811621414037,-3.103919487957866,0.38798407242093147,1.7970701635011004
16.032413959503174,1.6912063289615844,-0.6747016870238763,-1.1278336278963117,-3.10538976651015,0.38823064952441216,1.7983586560580693
16.132771015167236,1.6912063289615844,-0.6754165359953204,-1.1270114094801633,-3.1068893568143507,0.38852209186232395,1.7997339981759284
16.23207688331604,1.691167991552088,-0.6760009324285893,-1.1263343945448423,-3.1082213528862224,0.3887483351874502,1.8009467545027757
16.33276891708374,1.691199185344908,-0.6766681105485193,-1.1255548212544717,-3.1096540585616403,0.3890229677583219,1.8022483570559154
16.432355880737305,1.6912493097219201,-0.6771815408898434,-1.1248970411820627,-3.111021857158992,0.38923717797726043,1.8034624014511247
16.532012939453125,1.6912149013015958,-0.6778410730369095,-1.124217578656792,-3.112217240972144,0.38947959787438535,1.804645621155156
16.631815910339355,1.6911869221362803,-0.6783710424901701,-1.1236289617494866,-3.113373622547454,0.3896723832648454,1.8057362234645824
16.72915005683899,1.6912649066183303,-0.6788589235583214,-1.1229280813930458,-3.1148292711280328,0.38990308730902984,1.806931824805781
16.831984043121338,1.691230379137728,-0.679370471144832,-1.1223690880001762,-3.1158803255959215,0.3900945754428134,1.8079321793257663
16.931823015213013,1.6912268073293897,-0.679932719749741,-1.1217364086889878,-3.1170368123462993,0.39030984811774055,1.8090118877825352
17.029999017715454,1.69124585697386,-0.6803430347913225,-1.1212399111740479,-3.1181272698153553,0.39045977569111223,1.8100093282594654
17.132159948349,1.6912422851655218,-0.6809063696718008,-1.1206640738576876,-3.1191345623043745,0.39066569724018974,1.8110283514212815
17.233799934387207,1.6912422851655218,-0.681321087845686,-1.1201623633682234,-3.12016994048154,0.3908214070634088,1.8119488667695638
17.328474044799805,1.6912196637127135,-0.6817802587066544,-1.1196588841888695,-3.1211499409889236,0.39098909811163185,1.812884588558838
17.430229902267456,1.6912232355210517,-0.6822069191944488,-1.1191675706531377,-3.122104532516368,0.3911500813036547,1.8137781380922084
17.529983043670654,1.6912699071500037,-0.6825655784853489,-1.118664192591106,-3.1232069633328696,0.3913066204724396,1.814700845121833
17.63174796104431,1.6912735980186198,-0.6829477362094648,-1.1182092754110935,-3.1241091219754624,0.3914531305291029,1.8155118549688758
17.732549905776978,1.6912663353416655,-0.6833931709875412,-1.1177455814414226,-3.1249815791718274,0.39160217358012217,1.8163800909164505
17.830899953842163,1.6912853849861358,-0.6837576112765716,-1.117351159065813,-3.1258029266515126,0.39172791035274473,1.8171777073975264
17.929781913757324,1.691255738976929,-0.6841163971982773,-1.1168985918698005,-3.126704776867402,0.3918655753041209,1.8179411244575874
18.03057289123535,1.6912746695611212,-0.6844890938920185,-1.1165236875648197,-3.1274197535508383,0.3919916181189838,1.8186901606017896
18.130697011947632,1.6912901473972533,-0.6848383115342056,-1.116112876186084,-3.1282946131742855,0.3921105685817601,1.8194743278469814
18.23123598098755,1.6912901473972533,-0.6851144453832706,-1.1157595591672282,-3.1290570840720378,0.3922190475146776,1.8201526436810782
18.329912900924683,1.691298481616709,-0.6854559101350571,-1.115398337350231,-3.1298009628260006,0.39232961631986396,1.8208871271685605
18.429271936416626,1.6912971719536516,-0.6857738161163931,-1.11505729467307,-3.1304736686996186,0.3924365101259839,1.821529675412706
18.53079891204834,1.691317769381735,-0.6860665223538438,-1.114668695106656,-3.1312873218694466,0.39255197661333985,1.8222175647140775
18.62957787513733,1.691333247217867,-0.6863173983082437,-1.1143493024529014,-3.1319839094697914,0.3926458137472646,1.8228332926060171
18.730648040771484,1.6913225317928526,-0.6865876803217951,-1.1140316267026973,-3.132669990008877,0.39273836217285796,1.8234694529253124
18.830873012542725,1.6913106257650588,-0.686849844301387,-1.1137230754935976,-3.1332789917699553,0.39283502863986675,1.8240300308605797
18.92945098876953,1.6913225317928526,-0.6871885951076627,-1.1134384124803958,-3.133829142890835,0.3929259109520018,1.8246645659191896
19.032527923583984,1.6913261036011908,-0.6874329638600841,-1.113148261251139,-3.1344155704589585,0.3930128555227528,1.8252006030939352
19.129814863204956,1.691345153245661,-0.6877031319005442,-1.112846659231678,-3.1350496545864948,0.39309811926703586,1.8257748439998465
19.228698015213013,1.6913344378206465,-0.6878852315676384,-1.1125720670989836,-3.135664259093066,0.39317307077475855,1.8262771692789836
19.332767963409424,1.6913534874651166,-0.6881658413369193,-1.1122999098652937,-3.136198977458973,0.3932616401852923,1.8268462442237061
19.430377960205078,1.6913380096289847,-0.6883776074363497,-1.1120806240476584,-3.136662796634852,0.3933196292596045,1.8272859380919628
19.532711029052734,1.6913928964171145,-0.6885997350582584,-1.1118000757985749,-3.137291634623572,0.3934028188775587,1.827862318608803
19.631757020950317,1.6913620598051282,-0.6887888306562221,-1.1115843321616843,-3.137748621567178,0.3934580111725328,1.8282740073169534
19.728139877319336,1.6913775376412603,-0.6889908994139141,-1.1113670690919177,-3.1382531700685066,0.39351718989173146,1.8287782827174803
19.82970905303955,1.6913380096289847,-0.6891992021552173,-1.1111533573868786,-3.138663215999112,0.3935782560958176,1.8291602117961885
19.932518005371094,1.69132729420397,-0.6893824841396788,-1.1109712584780904,-3.139096215456886,0.39362543924822896,1.8296190300102446
20.031826972961426,1.6914158750507566,-0.6895729313944662,-1.1107328389311018,-3.1396332782554617,0.3936961308819182,1.8300942575250798
20.132519960403442,1.6913930154773924,-0.6897662222661658,-1.1104814340166071,-3.140089527021087,0.3937773852765806,1.8304768156867353
20.23198699951172,1.691373965832922,-0.6899474772824675,-1.110312258238111,-3.1404396745951635,0.39382549444313836,1.8308508767919938
20.328929901123047,1.691373965832922,-0.6901336527002351,-1.1101596748305518,-3.140803090269251,0.3938594298283392,1.8312645174283553
20.428613901138306,1.691366822216246,-0.6902646830292152,-1.1099632898199918,-3.1412455683471685,0.3939093282413519,1.8316099897823332
20.532368898391724,1.691373965832922,-0.6904112677859205,-1.1098088562889976,-3.1416322730845754,0.3939461230109021,1.8319924918072301
20.631990909576416,1.691385871860716,-0.6905528399634501,-1.1096398054896308,-3.141982696865021,0.3939994370223522,1.832316078168739
20.730679035186768,1.6914206374618743,-0.6907267081841915,-1.1094479825154318,-3.1424066078329234,0.3940533020474444,1.8327287612475494
20.831603050231934,1.6913703940245841,-0.6908433523862806,-1.1092841876378647,-3.142757625608084,0.3940874549484171,1.833001020303593
20.929004907608032,1.6914099220368597,-0.6910006792683561,-1.1091440904399414,-3.143063301456736,0.3941354104879746,1.833356950031466
21.029911994934082,1.6913751564357016,-0.6911203036108793,-1.1090275802589855,-3.1433429619794575,0.3941576545876516,1.8336293947513862
21.131239891052246,1.6914063502285215,-0.6912843591043729,-1.1088684688723882,-3.1436669710644694,0.39420701855147144,1.8339759718180346
21.22996687889099,1.6914063502285215,-0.691423676715905,-1.1087069251258945,-3.143983196635961,0.39425147811262196,1.8342558979054409
21.33054804801941,1.6914304004046652,-0.6915159628292112,-1.1085654048597615,-3.1443597287692775,0.39428661024004186,1.8345768180810345
21.430984020233154,1.6914376630816195,-0.6916099996114041,-1.1084502768416613,-3.144649743149245,0.39431218480782265,1.834837758321417
21.529722929000854,1.6913908723923896,-0.6917613837179086,-1.1083310336157828,-3.14486542499104,0.39434310074232043,1.835091178704206
21.63104009628296,1.6914461163613532,-0.6918249762029522,-1.1081725891584244,-3.1452695774654478,0.39438206767549067,1.8353762194433196
21.729252099990845,1.6914339722130034,-0.6919545828890665,-1.1080541485849915,-3.1455040822613958,0.39441842794277365,1.835629848167881
21.832275867462158,1.691458022389147,-0.6920459279380496,-1.1079487402085915,-3.1457684268070074,0.3944435200572611,1.8358899971641585
21.930614948272705,1.6914843347105715,-0.6921328084102206,-1.107833890382305,-3.1460732039774486,0.3944706116350063,1.8361758209914896
22.03019094467163,1.691426828596327,-0.6922618156798599,-1.1077535484947554,-3.146184500351095,0.39449356750917897,1.8363348494347338
22.132848978042603,1.691442544553015,-0.6923700111334326,-1.107647350269745,-3.146443389034799,0.3945169296392328,1.8365921282586144
22.230042934417725,1.6914461163613532,-0.6924420261132938,-1.10755835323319,-3.146670162924721,0.3945349091991461,1.836796188122409
22.329834938049316,1.691473500225279,-0.692513771619032,-1.1074240812141223,-3.146995002342587,0.39457078701365983,1.8370428070529934
22.430670022964478,1.6914232567879888,-0.6926743179030722,-1.1073424848461175,-3.1470633219016855,0.39459747797751105,1.8372005912501777
22.532034873962402,1.691442544553015,-0.6927080912331908,-1.1072490866584732,-3.1473624394596977,0.39461114622283855,1.8374293524340346
22.632232904434204,1.691473500225279,-0.6928242480290755,-1.1071565841131663,-3.1475216514495883,0.3946470892631605,1.8376399871436693
22.73000192642212,1.691488978061411,-0.6928946172078547,-1.1070671384323603,-3.147768896218354,0.39466547060331725,1.8378667589933113
22.8297278881073,1.6914389727446768,-0.692962798168139,-1.1069876546882151,-3.1479143904783724,0.3946834553061491,1.8379891280608025
22.93007206916809,1.691454450580809,-0.6930212323001176,-1.1069059585035226,-3.1481446864808387,0.39469519878647585,1.8381707614624918
23.03187108039856,1.6914854062530729,-0.6930652245717308,-1.1068332984436777,-3.1483610637533324,0.3947153224262614,1.8383711795627373
23.12973403930664,1.6914904067847463,-0.6931602601887964,-1.1067655092915578,-3.1485143797156105,0.39472894388122254,1.838575182414601
23.232579946517944,1.6914975504014227,-0.6932495019108176,-1.1066843142155354,-3.148654164039909,0.3947577101808033,1.838722552410196
23.33008599281311,1.6914627848002646,-0.6933255250187677,-1.1066171964180365,-3.1487937154497954,0.39476471153940196,1.8388429069561012
23.430195093154907,1.6915596998665068,-0.6933352898588728,-1.10652660677776,-3.14910030119207,0.39479365316977943,1.8390839092338631
23.529229879379272,1.6915130282375548,-0.6934058236197811,-1.1064668377545561,-3.1492046689652797,0.39480541969497984,1.8391918746307774
23.63240098953247,1.6915094564292166,-0.6934833839484525,-1.1064106509118037,-3.1493251309381183,0.39481720827454997,1.8393380763872555
23.732090950012207,1.691483382228348,-0.6935384183620796,-1.10635930764995,-3.14946581750482,0.3948245357521568,1.8394931441784224
23.832335948944092,1.691483382228348,-0.6936112104648079,-1.1063107880614755,-3.1495580140293633,0.3948328649460308,1.8395967893292418
23.930198907852173,1.6915058846208784,-0.6936892929118701,-1.1062067883581452,-3.1497449592987232,0.39487099751894855,1.8397617805968067
24.033082962036133,1.6915177906486722,-0.6937165853782451,-1.106178011703583,-3.1498611683825546,0.3948752502857492,1.8398961038162251
24.13053607940674,1.6915644622776242,-0.6937581910053167,-1.1060885619689533,-3.1500883831407145,0.39490098708920063,1.840065555424802
24.228633880615234,1.691510647031996,-0.6937909894467827,-1.1060741536618683,-3.150152198823007,0.3948902387345884,1.840135637402269
24.332398891448975,1.6915608904692863,-0.6938532892339513,-1.105999293959514,-3.150327554651608,0.39491453973823765,1.8403084246614916
24.42786407470703,1.6915023128125402,-0.6938959177340509,-1.1059990734639829,-3.150343804242169,0.39490072198101916,1.840367059591916
24.52852702140808,1.691541840824816,-0.6939530414755962,-1.105910195761301,-3.1505222323034867,0.3949356051271794,1.8405226849939023
24.62950897216797,1.691557318660948,-0.6939760791664843,-1.1058617551194176,-3.150673705798621,0.3949419332644311,1.8406375281728466
24.728843927383423,1.691541840824816,-0.6940322562475566,-1.1057909506752828,-3.1507892007418508,0.39496153340877477,1.8407187445343869
24.82965898513794,1.6915849406454297,-0.6940729899519782,-1.1057647965050472,-3.1508871900426967,0.39496868837526233,1.840858722249911
24.930551052093506,1.691541840824816,-0.6941275666772508,-1.1057161026572682,-3.1509755683849483,0.39497580747103356,1.8409410852495356
25.028873920440674,1.691557318660948,-0.694117972668141,-1.1056834368511521,-3.1511375283997447,0.39497376782801347,1.8410440963131158
25.130961894989014,1.691569224688742,-0.6942287006478575,-1.1056092760060288,-3.1511959160896525,0.39500968985164364,1.8411722511110418
25.231860876083374,1.6915346972081395,-0.6942418253833876,-1.105580502977866,-3.1512648329906376,0.3950129245598472,1.8412066491247407
25.331337928771973,1.6915742252204153,-0.6942561203760614,-1.1055622431935914,-3.151394044547107,0.3950086240966577,1.8413489805478773
25.4324209690094,1.6915620810720655,-0.6942901539496692,-1.1055309767344967,-3.1514722705258325,0.3950126104985851,1.841413765889128
25.53104591369629,1.6915777970287535,-0.6942945334663153,-1.105488621264846,-3.151618339300418,0.39501794458029105,1.8415150277127934
25.631017923355103,1.6915466032359334,-0.6943853773912378,-1.1054747368977431,-3.151571282119705,0.39502822452280334,1.8415765417166314
25.730665922164917,1.6915932748648856,-0.6944287400653045,-1.105410016283341,-3.1517227720980476,0.39504884941681595,1.84170112614182
25.82877206802368,1.691598037276003,-0.6944103105076895,-1.1053714750374115,-3.1518729797966514,0.3950476179906485,1.8417627795216973
25.930792093276978,1.6915861312482092,-0.6944652177862409,-1.1053522201747992,-3.1518845646961875,0.39505776463511033,1.8418376980204785
26.031732082366943,1.6915897030565474,-0.6944746511192944,-1.1053182011266873,-3.151996185802325,0.39506077812023793,1.8419069639796724
26.129271030426025,1.6916363746854994,-0.694499785103416,-1.1052687113601158,-3.152124716127258,0.39507890727253936,1.842028178092857
26.232306957244873,1.691598037276003,-0.6945370497299322,-1.105250530970912,-3.1521343888715436,0.39508485092889506,1.8420667719755646
26.33271288871765,1.6916363746854994,-0.6945955070731702,-1.1051846597837862,-3.152270728038563,0.3950986263351015,1.8421716990864065
26.429562091827393,1.691594465467665,-0.6945972671110276,-1.1051830048238922,-3.1522886257219294,0.39509583252909053,1.8421849743263716
26.532093048095703,1.691598037276003,-0.6946442194862511,-1.1051519807001284,-3.152352683791526,0.3951034550779771,1.8422710815371037
26.63212490081787,1.691598037276003,-0.6946607917099124,-1.1051572044963904,-3.152371537511805,0.3950962919762004,1.842316462042803
26.73327088356018,1.6916339934799407,-0.6946712877646649,-1.1050960281336284,-3.152534388090681,0.3951114510682504,1.8424108846909084
26.831830978393555,1.6916256592604848,-0.6946942428355933,-1.1050854346217835,-3.1525506936252348,0.39511736398645314,1.842469432781488
26.931998014450073,1.691641137096617,-0.6947163655138279,-1.1050613057751848,-3.1526337654143104,0.39511944213535083,1.842550581773482
27.02846908569336,1.6916149438354704,-0.6947701576158691,-1.1050630991989523,-3.152599211450514,0.3951177878734318,1.8425849835979426
27.133008003234863,1.6916026806268427,-0.6947941354157636,-1.1050148434569302,-3.1526850192249887,0.3951281944980319,1.8426144579325958
27.229338884353638,1.6916375652882787,-0.6947670583318689,-1.1049813905352375,-3.152827070550557,0.39513674197459164,1.8426967712328342
27.330437898635864,1.6916149438354704,-0.6948093003497064,-1.1049668062968034,-3.1528433810571728,0.39513589251871445,1.8427316651716894
27.431798934936523,1.6916375652882787,-0.6948618040289627,-1.1049565441771771,-3.1528384735316672,0.3951456907690292,1.8428066508684855
27.533128023147583,1.6916268498632643,-0.6948417666643559,-1.1049411664824227,-3.1529283234539007,0.3951426246037903,1.8428567129768914
27.63078808784485,1.6916580436560842,-0.6948584401319221,-1.1049196728018242,-3.153003480029088,0.39514656171244217,1.8429269275037585
27.728522062301636,1.691641137096617,-0.6949054762523191,-1.1048801053514632,-3.153045705548938,0.3951602900793182,1.8429715850198838
27.82932996749878,1.6916651872727606,-0.6949160488546299,-1.1048646651725667,-3.153084960000954,0.3951706261774436,1.8430286957699507
27.92954707145691,1.6916580436560842,-0.6948999474190878,-1.1048600347834965,-3.153152396659003,0.39515924741008285,1.8430556653233459
28.03189992904663,1.6916580436560842,-0.6949292865200122,-1.1048359788412172,-3.153186313114654,0.395170373397286,1.843100170914165
28.1306369304657,1.6916774504813883,-0.6949371753431,-1.1047873404053619,-3.1532757826356104,0.3951912938546668,1.8431508513169395
28.23002004623413,1.691647209170792,-0.6949651278066357,-1.104797342260796,-3.153264068189524,0.3951762566410866,1.8431690646571888
28.329987049102783,1.6917000719341966,-0.6949621462315589,-1.1047838418815947,-3.1533560882174143,0.39518046214770153,1.8432489094508517
28.430065870285034,1.6916666159960958,-0.6949642768813079,-1.1047737076143047,-3.1533868970350394,0.3951763515097379,1.843267819770662
28.53177499771118,1.691685665640566,-0.695013168595216,-1.1047167388809425,-3.153440637307723,0.3952043269434226,1.8433050394333625
28.630411863327026,1.6916580436560842,-0.6950095332755429,-1.1047449784186083,-3.1534242541454334,0.39518653838026374,1.8433176456875164
28.731812953948975,1.6917011434766982,-0.6949786574973372,-1.1047091542500265,-3.1535838345465668,0.3951899035633448,1.8433913025531041
28.83099603652954,1.6917011434766982,-0.6950695976532663,-1.1046831527269922,-3.1535307411869162,0.3952128427574859,1.8434391446174516
28.930131912231445,1.691670187804434,-0.6950609106331702,-1.1046995713687906,-3.1535559269154123,0.3951887803814553,1.8434518292459934
29.02966809272766,1.691685665640566,-0.6950681837042191,-1.1046575724574126,-3.153619713406805,0.3952110945777816,1.8434791162209772
29.129213094711304,1.69169757166836,-0.6950719948221665,-1.104662714442368,-3.1536621149497273,0.39520072373513976,1.8435338279738047
29.22872495651245,1.691682093832228,-0.6950882574480372,-1.1046450989674645,-3.1536666959566118,0.395212142569225,1.843557689599633
29.330381870269775,1.6917057868275378,-0.6950811727593101,-1.1046365503918127,-3.153733243828031,0.39520964022608873,1.8435931187900827
29.431535005569458,1.6917094776961539,-0.6951489629651105,-1.104593202788744,-3.153745977770787,0.3952282748428021,1.8436293657896194
29.53198504447937,1.6917094776961539,-0.695128365422389,-1.1045931358178436,-3.153799664353195,0.39522620036296235,1.8436720863565688
29.632405042648315,1.6917369806203577,-0.6951455980118236,-1.1045979144747762,-3.1538183102619857,0.39522213349033347,1.8437358483750592
29.73228693008423,1.6917369806203577,-0.6951675970337835,-1.104571492124307,-3.1538651622517806,0.39522782149476066,1.8437516744707567
29.834117889404297,1.6916991194519733,-0.6952175238395076,-1.1045814946708619,-3.153798547789841,0.39522067375361364,1.8437513943729082
29.932026863098145,1.6917181690964433,-0.6952087429778897,-1.1045435207062326,-3.1538932643550983,0.39523375456969745,1.8437848278406639
30.029387950897217,1.6917438861164782,-0.6951857924002495,-1.1045458463568645,-3.1539450245528013,0.395232899603412,1.8438419151658771
30.27691388130188,1.6917454339000915,-0.695232039540248,-1.1044995191672078,-3.1539793715790987,0.39524914161554175,1.843838952564205
30.277098894119263,1.6917300751242372,-0.6952235307490685,-1.1045045829698357,-3.153999216775495,0.39524283735285287,1.8438740591398477
30.332485914230347,1.6917488866481516,-0.6952426739789028,-1.1045149027360506,-3.1539871242756066,0.3952455421937826,1.8439231900252184
30.433348894119263,1.6917573399278854,-0.6951827330726204,-1.1044948441801001,-3.1541088203612038,0.3952417139089796,1.8439238038343928
30.53939199447632,1.691767579111788,-0.6951865263145816,-1.1044660311933652,-3.154193113814574,0.395246635962997,1.843974407229912
30.633409023284912,1.6917232886883948,-0.6952148059746064,-1.104474312169464,-3.1541449632114498,0.39524116762178335,1.8439608370821854
30.731956958770752,1.6917848428520892,-0.6952320258318054,-1.1044513531026345,-3.154202272071481,0.39525852595029837,1.8440494056109338
30.83194589614868,1.6917813901040288,-0.6952181399332079,-1.1044624579346807,-3.154220161651484,0.39524773623795795,1.8440505049767013
30.934712886810303,1.691796748879883,-0.6952367016962625,-1.1044300596476258,-3.154274296963993,0.39525782144792043,1.8440817354963168
31.03497004508972,1.6917848428520892,-0.6952571739086053,-1.1044315804958067,-3.1542560067499257,0.3952550451213495,1.844086970312279
31.13666009902954,1.6917882956001493,-0.6952662134435081,-1.1044358758679316,-3.1542641263981257,0.3952545599954833,1.8441330291168356
31.23390007019043,1.691769484076235,-0.6953111615934129,-1.1044285306232633,-3.154226903609162,0.3952573166431369,1.844127703724133
31.333232879638672,1.6917660313281748,-0.6952943462434387,-1.1044269624628391,-3.1542543607634337,0.39525642793824756,1.8441401710006162
31.432296991348267,1.691812345776293,-0.6953343381180604,-1.1043819852209469,-3.154315941501167,0.395278727307008,1.8441924648806238
32.082005977630615,1.6917898433837626,-0.6953316590817084,-1.1043607927763122,-3.1543740843071846,0.3952749311077178,1.8442039922056812
32.083173990249634,1.6918292523357603,-0.6953230002452686,-1.1043904685246575,-3.1543793939685014,0.3952662952630022,1.8442645878289978
32.08318901062012,1.691824251804087,-0.6952974795782909,-1.1043775339447526,-3.1544486149299376,0.3952659146409273,1.8442827623687825
32.083203077316284,1.691836038771603,-0.6953371557495115,-1.104341042816721,-3.1544641644265887,0.3952843636879422,1.844307665106936
32.08321690559387,1.6918327050838204,-0.6953370515150057,-1.104338229798982,-3.1544992032879855,0.3952790444521063,1.8443228065536308
32.08323097229004,1.691798534784052,-0.6953785800908333,-1.104341931008186,-3.154408571862059,0.39528648808380357,1.8443036293502013
32.143579959869385,1.691810559872124,-0.6953270590049423,-1.104362166035684,-3.154489843656812,0.3952631669322752,1.844341509926284
32.22873592376709,1.6918327050838204,-0.695359352512016,-1.1043223425448099,-3.1545159543724464,0.39529081924513343,1.8443857776043808
32.3270320892334,1.6918479447993968,-0.6953701620055083,-1.1043041542347671,-3.154565991416483,0.39529187099026236,1.8444086289493486
32.427834033966064,1.6918292523357603,-0.6953775017024034,-1.104314541579909,-3.1545361714863946,0.39528953686804597,1.8444069482310246
