NigerChel/WBC-UR5-Harvest/wbc_ur5/plots_joint_limit/Experiments_ur5/Experiment_without/joint_positions.csv
Time (s),Joint 1 Position REEMC,Joint 1 Position Whole Body,q_ref Joint 1,q_lb Joint 1,q_ub Joint 1,Joint 2 Position REEMC,Joint 2 Position Whole Body,q_ref Joint 2,q_lb Joint 2,q_ub Joint 2,Joint 3 Position REEMC,Joint 3 Position Whole Body,q_ref Joint 3,q_lb Joint 3,q_ub Joint 3,Joint 4 Position REEMC,Joint 4 Position Whole Body,q_ref Joint 4,q_lb Joint 4,q_ub Joint 4,Joint 5 Position REEMC,Joint 5 Position Whole Body,q_ref Joint 5,q_lb Joint 5,q_ub Joint 5,Joint 6 Position REEMC,Joint 6 Position Whole Body,q_ref Joint 6,q_lb Joint 6,q_ub Joint 6
0.06731200218200684,-0.00023140607109804187,-0.00020486513246709137,0.0,0.0,0.0,-0.7912636666008707,-0.7912517947009583,0.0,0.0,0.0,-1.7346656163680738,-1.7347218990325928,0.0,0.0,0.0,-0.9657527222895814,-0.9657166761210938,0.0,0.0,0.0,1.5975468319809294,1.5975487232208252,0.0,0.0,0.0,0.0042612497053931934,0.004253864288330078,0.0,0.0,0.0
0.1671440601348877,-0.0002717978118253004,-0.0002706686602991226,0.0,0.0,0.0,-0.7912780086648328,-0.7912711066058655,0.0,0.0,0.0,-1.7347099209567185,-1.7346642017364502,0.0,0.0,0.0,-0.9656942643626633,-0.9657288950732728,0.0,0.0,0.0,1.5975701493452117,1.5975522994995117,0.0,0.0,0.0,0.004253042188124304,0.004246735479682684,0.0,0.0,0.0
0.2671051025390625,-0.0002501800666337667,-0.0002358595477502945,0.0,0.0,0.0,-0.7912564466619062,-0.7912711066058655,0.0,0.0,0.0,-1.7346839004512775,-1.7347111701965332,0.0,0.0,0.0,-0.9657374141194811,-0.9656936091235657,0.0,0.0,0.0,1.5975503670082456,1.5975260734558105,0.0,0.0,0.0,0.004265172629398948,0.00426934938877821,0.0,0.0,0.0
0.36672306060791016,-0.0002547765181856557,-0.00024301210512334137,0.0,0.0,0.0,-0.791268058230319,-0.7912590068629761,0.0,0.0,0.0,-1.7346863861479997,-1.7347147464752197,0.0,0.0,0.0,-0.9657224457168677,-0.9656973046115418,0.0,0.0,0.0,1.5975597175122318,1.5975487232208252,0.0,0.0,0.0,0.004270812752980979,0.004284865688532591,0.0,0.0,0.0
0.46866703033447266,-0.00026231623521651615,-0.0002554098712366226,0.0,0.0,0.0,-0.7912787342521213,-0.7912554305842896,0.0,0.0,0.0,-1.734694649739923,-1.73469877243042,0.0,0.0,0.0,-0.9657054390654394,-0.9657130998424073,0.0,0.0,0.0,1.5975638308840154,1.5975487232208252,0.0,0.0,0.0,0.00425869855133372,0.0042574405670166016,0.0,0.0,0.0
0.5755510330200195,-0.00024356349164328064,-0.0002244154559534195,0.0,0.0,0.0,-0.7912478003065785,-0.7912711066058655,0.0,0.0,0.0,-1.7347639983099004,-1.7346482276916504,0.0,0.0,0.0,-0.9656564259268142,-0.9656973046115418,0.0,0.0,0.0,1.5975584330458934,1.5975652933120728,0.0,0.0,0.0,0.004269101773993238,0.004277706146240234,0.0,0.0,0.0
0.6668610572814941,-0.00024073750913420407,-0.00022107759584599762,0.0,0.0,0.0,-0.7912432523746699,-0.791274682884552,0.0,0.0,0.0,-1.7347218745075876,-1.7346863746643066,0.0,0.0,0.0,-0.965706317597329,-0.9656855028918763,0.0,0.0,0.0,1.5975403208931669,1.5975104570388794,0.0,0.0,0.0,0.004271203147564775,0.004281275440007448,0.0,0.0,0.0
0.766697883605957,-0.0002620021489816537,-0.0002554098712366226,0.0,0.0,0.0,-0.7912662522236453,-0.7912517947009583,0.0,0.0,0.0,-1.7347910613179656,-1.734651803970337,0.0,0.0,0.0,-0.9656024781727361,-0.9656817477992554,0.0,0.0,0.0,1.59756343703671,1.5975487232208252,0.0,0.0,0.0,0.004269738261704602,0.004284873139113188,0.0,0.0,0.0
0.867717981338501,-0.00025953467909707167,-0.0002515951739709976,0.0,0.0,0.0,-0.7912728328354277,-0.7912554305842896,0.0,0.0,0.0,-1.7347066812011618,-1.73469877243042,0.0,0.0,0.0,-0.9656952215583905,-0.9657009404948731,0.0,0.0,0.0,1.5975543143628117,1.597522497177124,0.0,0.0,0.0,0.0042562560435359335,0.004250309430062771,0.0,0.0,0.0
0.9674320220947266,-0.00025090935930175665,-0.0002358595477502945,0.0,0.0,0.0,-0.7912763060047586,-0.791239933376648,0.0,0.0,0.0,-1.7347216345231153,-1.73469877243042,0.0,0.0,0.0,-0.9656729639370618,-0.9657009404948731,0.0,0.0,0.0,1.5975690757385046,1.5975868701934814,0.0,0.0,0.0,0.004252282699661511,0.004238360095769167,0.0,0.0,0.0
1.067445993423462,-0.0002525886906592456,-0.00023919740785771637,0.0,0.0,1.7453292519943295,-0.7912677286446501,-0.7912554305842896,-0.8,0.0,6.283185307179586,-1.7346886695684651,-1.7347183227539062,-1.8,0.0,6.283185307179586,-0.9657190434479533,-0.9656936091235657,-0.9,0.0,6.283185307179586,1.5975585621624022,1.5975487232208252,1.653092622756958,0.0,6.283185307179586,0.004249325987376232,0.004231157246977091,-0.02,0.0,6.283185307179586
1.1673469543457031,-0.00024125971392642114,-0.00022107759584599762,0.0,0.0,1.7453292519943295,-0.7912582513794502,-0.7912674707225342,-0.8,0.0,6.283185307179586,-1.734680157873604,-1.7347023487091064,-1.8,0.0,6.283185307179586,-0.965743106373642,-0.9657130998424073,-0.9,0.0,6.283185307179586,1.5975500993882417,1.5975415706634521,1.653092622756958,0.0,6.283185307179586,0.004269625787349278,0.004277706146240234,-0.02,0.0,6.283185307179586
1.266042947769165,-0.0002361429440936425,-0.00021201768984013825,0.0,0.0,1.7453292519943295,-0.7912699947569791,-0.7912362974933167,-0.8,0.0,6.283185307179586,-1.7347384435208022,-1.7346827983856201,-1.8,0.0,6.283185307179586,-0.9656612207996581,-0.965709463959076,-0.9,0.0,6.283185307179586,1.5975611942892864,1.597588062286377,1.653092622756958,0.0,6.283185307179586,0.004258956168905451,0.004250275902450085,-0.02,0.0,6.283185307179586
1.3682351112365723,-0.00025980329675562915,-0.0002515951739709976,0.0,0.0,1.7453292519943295,-0.7912734631822885,-0.7912554305842896,-0.8,0.0,6.283185307179586,-1.7347019173379126,-1.734702467918396,-1.8,0.0,6.283185307179586,-0.9656999635897141,-0.9657009404948731,-0.9,0.0,6.283185307179586,1.5975602499671804,1.5975415706634521,1.653092622756958,0.0,6.283185307179586,0.004268723321834518,0.004281294532120228,-0.02,0.0,6.283185307179586
1.4669890403747559,-0.00026055466715576843,-0.0002515951739709976,0.0,0.0,1.7453292519943295,-0.7912752597928816,-0.7912554305842896,-0.8,0.0,6.283185307179586,-1.7346987230151933,-1.7347023487091064,-1.8,0.0,6.283185307179586,-0.9657025974610829,-0.9657045167735596,-0.9,0.0,6.283185307179586,1.597572304203917,1.5975797176361084,1.653092622756958,0.0,6.283185307179586,0.004262204255219998,0.004265799652785063,-0.02,0.0,6.283185307179586
1.5654308795928955,-0.00024083333317369748,-0.00022107759584599762,0.0,0.0,1.7453292519943295,-0.7912584088151361,-0.7912590068629761,-0.8,0.0,6.283185307179586,-1.7346917267920088,-1.7347111701965332,-1.8,0.0,6.283185307179586,-0.9657256743626521,-0.9656973046115418,-0.9,0.0,6.283185307179586,1.5975436646878707,1.5975213050842285,1.653092622756958,0.0,6.283185307179586,0.004269785468745117,0.004277720581740141,-0.02,0.0,6.283185307179586
1.6660149097442627,-0.0002342797563529583,-0.00020867982973271637,0.0,0.0,1.7453292519943295,-0.791256938210848,-0.7912590068629761,-0.8,0.0,6.283185307179586,-1.7347144998091537,-1.7346826791763306,-1.8,0.0,6.283185307179586,-0.9657046089095753,-0.9657130998424073,-0.9,0.0,6.283185307179586,1.5975599179839441,1.5975868701934814,1.653092622756958,0.0,6.283185307179586,0.004271766911473727,0.004281313624233007,-0.02,0.0,6.283185307179586
1.766390085220337,-0.00026189209313567116,-0.0002554098712366226,0.0,0.0,1.7453292519943295,-0.7912725373193212,-0.7912517947009583,-0.8,0.0,6.283185307179586,-1.7347546083264795,-1.7346676588058472,-1.8,0.0,6.283185307179586,-0.9656404236224444,-0.9656973046115418,-0.9,0.0,6.283185307179586,1.5975587547234726,1.5975332260131836,1.653092622756958,0.0,6.283185307179586,0.0042543617444601445,0.004246664233505726,-0.02,0.0,6.283185307179586
1.8663530349731445,-0.0002409539307635281,-0.00022107759584599762,0.0,0.0,1.7453292519943295,-0.791260247174126,-0.7912517947009583,-0.8,0.0,6.283185307179586,-1.734701763068938,-1.7347147464752197,-1.8,0.0,6.283185307179586,-0.9657100497871688,-0.965689019565918,-0.9,0.0,6.283185307179586,1.5975451850768128,1.5975260734558105,1.653092622756958,0.0,6.283185307179586,0.004257172803777704,0.004246664233505726,-0.02,0.0,6.283185307179586
1.9671049118041992,-0.00023847262265337937,-0.00021535554994756012,0.0,0.0,1.7453292519943295,-0.7912619789322131,-0.7912517947009583,-0.8,0.0,6.283185307179586,-1.7347021465858787,-1.734705924987793,-1.8,0.0,6.283185307179586,-0.9657103137130382,-0.9657009404948731,-0.9,0.0,6.283185307179586,1.5975626472388684,1.597588062286377,1.653092622756958,0.0,6.283185307179586,0.0042649927171475215,0.004265785217285156,-0.02,0.0,6.283185307179586
2.077528953552246,-0.0002392817191249068,-0.00021726289858037262,0.0,0.0,1.7453292519943295,-0.791277072612302,-0.7912242573550721,-0.8,0.0,6.283185307179586,-1.734730652204548,-1.734705924987793,-1.8,0.0,6.283185307179586,-0.9656591340323928,-0.9656973046115418,-0.9,0.0,6.283185307179586,1.597561492975442,1.597583293914795,1.653092622756958,0.0,6.283185307179586,0.004252349533503318,0.0042347670532763,-0.02,0.0,6.283185307179586
2.1691439151763916,-0.00023639272695600465,-0.00021392503847295075,0.0,0.0,1.7453292519943295,-0.7912696682661503,-0.7912206214717408,-0.8,0.0,6.283185307179586,-1.7347845813088356,-1.7346792221069336,-1.8,0.0,6.283185307179586,-0.9656020371707886,-0.9656817477992554,-0.9,0.0,6.283185307179586,1.5975492302121517,1.5975487232208252,1.653092622756958,0.0,6.283185307179586,0.004259066387347476,0.004250275902450085,-0.02,0.0,6.283185307179586
2.269144058227539,-0.00027279091483537344,-0.0002706686602991226,0.0,0.0,1.7453292519943295,-0.7912718689568176,-0.7912711066058655,-0.8,0.0,6.283185307179586,-1.734708599890541,-1.7346863746643066,-1.8,0.0,6.283185307179586,-0.9656963453968365,-0.9657009404948731,-0.9,0.0,6.283185307179586,1.5975865335495778,1.5976041555404663,1.653092622756958,0.0,6.283185307179586,0.00426678406089681,0.004281294532120228,-0.02,0.0,6.283185307179586
2.369220018386841,-0.00025647482912833817,-0.00024634996523076325,0.0,0.0,1.7453292519943295,-0.7912733379565716,-0.7912517947009583,-0.8,0.0,6.283185307179586,-1.7347053846388918,-1.734702467918396,-1.8,0.0,6.283185307179586,-0.9656956559732528,-0.9657009404948731,-0.9,0.0,6.283185307179586,1.5975573353664716,1.5975381135940552,1.653092622756958,0.0,6.283185307179586,0.004269163025093415,0.004281294532120228,-0.02,0.0,6.283185307179586
2.4713499546051025,-0.0002687770465155056,-0.00026733080019170075,0.0,0.0,1.7453292519943295,-0.7912858046988536,-0.7912362974933167,-0.8,0.0,6.283185307179586,-1.7347400995974356,-1.7346951961517334,-1.8,0.0,6.283185307179586,-0.9656400750827144,-0.965689019565918,-0.9,0.0,6.283185307179586,1.5975602917577163,1.5975260734558105,1.653092622756958,0.0,6.283185307179586,0.004280346661534492,0.004312658682465553,-0.02,0.0,6.283185307179586
2.570720911026001,-0.0002406648406910021,-0.00022107759584599762,0.0,0.0,1.7453292519943295,-0.7912510125669437,-0.7912674707225342,-0.8,0.0,6.283185307179586,-1.73470007904313,-1.734702467918396,-1.8,0.0,6.283185307179586,-0.9657237166068474,-0.9656925958446045,-0.9,0.0,6.283185307179586,1.597537823614717,1.5975022315979004,1.653092622756958,0.0,6.283185307179586,0.004257266308445651,0.0042466879822313786,-0.02,0.0,6.283185307179586
2.6683189868927,-0.0002416658873467865,-0.00022107759584599762,0.0,0.0,1.7453292519943295,-0.7912394822178195,-0.791274682884552,-0.8,0.0,6.283185307179586,-1.73473057806923,-1.7346916198730469,-1.8,0.0,6.283185307179586,-0.9656972715520104,-0.9656699460795899,-0.9,0.0,6.283185307179586,1.5975547033019333,1.5975558757781982,1.653092622756958,0.0,6.283185307179586,0.004266099899752051,0.00426937360316515,-0.02,0.0,6.283185307179586
2.7686080932617188,-0.000251866941728098,-0.00023919740785771637,0.0,0.0,1.7453292519943295,-0.7912777057275959,-0.7912362974933167,-0.8,0.0,6.283185307179586,-1.7346953772916454,-1.7347297668457031,-1.8,0.0,6.283185307179586,-0.965698204848533,-0.965689019565918,-0.9,0.0,6.283185307179586,1.5975511752485607,1.5975261926651,1.653092622756958,0.0,6.283185307179586,0.004262128020405714,0.004262196831405163,-0.02,0.0,6.283185307179586
2.8682029247283936,-0.0002429400784829279,-0.0002244154559534195,0.0,0.0,1.7453292519943295,-0.7912520809768467,-0.7912590068629761,-0.8,0.0,6.283185307179586,-1.7347608929616767,-1.7346676588058472,-1.8,0.0,6.283185307179586,-0.9656517509401567,-0.9656854432872315,-0.9,0.0,6.283185307179586,1.5975483167038491,1.5975332260131836,1.653092622756958,0.0,6.283185307179586,0.004265976910726201,0.00426937360316515,-0.02,0.0,6.283185307179586
2.969614028930664,-0.0002599035756402077,-0.0002515951739709976,0.0,0.0,1.7453292519943295,-0.7912697246292661,-0.7912590068629761,-0.8,0.0,6.283185307179586,-1.7347248457887254,-1.7346826791763306,-1.8,0.0,6.283185307179586,-0.9656783079614494,-0.9657009404948731,-0.9,0.0,6.283185307179586,1.5975624431332058,1.5975487232208252,1.653092622756958,0.0,6.283185307179586,0.004267176863581837,0.004277706146240234,-0.02,0.0,6.283185307179586
3.0669538974761963,-0.00024836834121793325,-0.00023252168764287262,0.0,0.0,1.7453292519943295,-0.7912585607007393,-0.7912590068629761,-0.8,0.0,6.283185307179586,-1.7347196145889983,-1.73469877243042,-1.8,0.0,6.283185307179586,-0.9656919530170864,-0.9656854432872315,-0.9,0.0,6.283185307179586,1.5975572187778526,1.5975522994995117,1.653092622756958,0.0,6.283185307179586,0.004270122328252708,0.004281287081539631,-0.02,0.0,6.283185307179586
3.1665549278259277,-0.00023679801935969606,-0.00021392503847295075,0.0,0.0,1.7453292519943295,-0.7912459066034134,-0.791274682884552,-0.8,0.0,6.283185307179586,-1.7347177270061709,-1.7346755266189575,-1.8,0.0,6.283185307179586,-0.9657121451722709,-0.9657045167735596,-0.9,0.0,6.283185307179586,1.5975450813246213,1.5975332260131836,1.653092622756958,0.0,6.283185307179586,0.004259029299356215,0.004250275902450085,-0.02,0.0,6.283185307179586
3.269788980484009,-0.00022941649328572322,-0.0002015272723596695,0.0,0.0,1.7453292519943295,-0.7912500471421645,-0.7912517947009583,-0.8,0.0,6.283185307179586,-1.7347107625147469,-1.7347147464752197,-1.8,0.0,6.283185307179586,-0.9657081890250212,-0.9656807345202942,-0.9,0.0,6.283185307179586,1.5975457221392775,1.5975487232208252,1.653092622756958,0.0,6.283185307179586,0.004257112088349457,0.004243099596351385,-0.02,0.0,6.283185307179586
3.368666887283325,-0.00024193940210948415,-0.00022107759584599762,0.0,0.0,1.7453292519943295,-0.7912579615056256,-0.7912554305842896,-0.8,0.0,6.283185307179586,-1.7347153047451476,-1.734702229499817,-1.8,0.0,6.283185307179586,-0.9656976152794317,-0.965689019565918,-0.9,0.0,6.283185307179586,1.5975630832240273,1.5975831747055054,1.653092622756958,0.0,6.283185307179586,0.00426455401664553,0.004265785217285156,-0.02,0.0,6.283185307179586
3.468048095703125,-0.00025227443772172256,-0.00023919740785771637,0.0,0.0,1.7453292519943295,-0.7912696071358117,-0.791239933376648,-0.8,0.0,6.283185307179586,-1.7347275389244616,-1.7347146272659302,-1.8,0.0,6.283185307179586,-0.965667418715249,-0.9656735223582764,-0.9,0.0,6.283185307179586,1.5975582315706214,1.5975487232208252,1.653092622756958,0.0,6.283185307179586,0.004263403098157936,0.004265785217285156,-0.02,0.0,6.283185307179586
3.5712850093841553,-0.00025299400290468207,-0.00023919740785771637,0.0,0.0,1.7453292519943295,-0.7912599338871495,-0.7912554305842896,-0.8,0.0,6.283185307179586,-1.7347474013028057,-1.7346863746643066,-1.8,0.0,6.283185307179586,-0.9656573701087976,-0.9656770986369629,-0.9,0.0,6.283185307179586,1.5975684207912075,1.5975807905197144,1.653092622756958,0.0,6.283185307179586,0.004256822497136914,0.004250275902450085,-0.02,0.0,6.283185307179586
3.667862892150879,0.7240787923098978,-0.00026733080019170075,0.0,0.0,1.7453292519943295,-0.6501909072049689,-0.7912554305842896,-0.8,0.0,6.283185307179586,-1.7464274594287321,-1.734729528427124,-1.8,0.0,6.283185307179586,-1.0822111019741802,-0.9656735223582764,-0.9,0.0,6.283185307179586,0.9387187266467136,1.5975831747055054,1.653092622756958,0.0,6.283185307179586,0.24103025023631913,0.004234743304550648,-0.02,0.0,6.283185307179586
3.7685699462890625,0.7240877006332679,-0.0002554098712366226,0.0,0.0,1.7453292519943295,-0.650181838126311,-0.7912590068629761,-0.8,0.0,6.283185307179586,-1.7464809422601861,-1.7346829175949097,-1.8,0.0,6.283185307179586,-1.0821719288299292,-0.9656770986369629,-0.9,0.0,6.283185307179586,0.9386906718455992,1.5975332260131836,1.653092622756958,0.0,6.283185307179586,0.24102910374768416,0.004293212667107582,-0.02,0.0,6.283185307179586
3.8700180053710938,0.7250914058158557,0.00132653652690351,0.0,0.0,1.7453292519943295,-0.6497445921081103,-0.7909576457789917,-0.8,0.0,6.283185307179586,-1.7465627362196574,-1.73469877243042,-1.8,0.0,6.283185307179586,-1.0828031557313116,-0.965893105869629,-0.9,0.0,6.283185307179586,0.9377112357311567,1.5961382389068604,1.653092622756958,0.0,6.283185307179586,0.2413150082551288,0.004815816879272461,-0.02,0.0,6.283185307179586
3.967927932739258,0.7292553717816205,0.007877873256802559,0.0,0.0,1.7453292519943295,-0.6479957570817242,-0.7896757882884522,-0.8,0.0,6.283185307179586,-1.7467635076992383,-1.7347464561462402,-1.8,0.0,6.283185307179586,-1.085629687609278,-0.9669884008220215,-0.9,0.0,6.283185307179586,0.9335698146938199,1.5899758338928223,1.653092622756958,0.0,6.283185307179586,0.2425622159169536,0.006891298107802868,-0.02,0.0,6.283185307179586
4.069658041000366,0.7384883812244657,0.022426921874284744,2.0,0.0,1.7453292519943295,-0.6440305935630761,-0.7868644756129761,-0.8,0.0,6.283185307179586,-1.7470791527039597,-1.7350289821624756,-1.8,0.0,6.283185307179586,-1.091960241741436,-0.9693057698062439,-0.9,0.0,6.283185307179586,0.9246144709404599,1.5769760608673096,1.653092622756958,0.0,6.283185307179586,0.24550216124992544,0.011703066527843475,-0.02,0.0,6.283185307179586
4.1713340282440186,0.7517058190922801,0.04324501007795334,2.0,0.0,1.7453292519943295,-0.6382464713954145,-0.7828480762294312,-0.8,0.0,6.283185307179586,-1.7475373066772315,-1.735405445098877,-1.8,0.0,6.283185307179586,-1.10121167444973,-0.9727037113955994,-0.9,0.0,6.283185307179586,0.9117192455066006,1.5580086708068848,1.653092622756958,0.0,6.283185307179586,0.24975208914532454,0.01846652291715145,-0.02,0.0,6.283185307179586
4.269334077835083,0.7710167882006428,0.07365170121192932,2.0,0.0,1.7453292519943295,-0.6296152684749441,-0.7768402260592957,-0.8,0.0,6.283185307179586,-1.7485624782131248,-1.7358931303024292,-1.8,0.0,6.283185307179586,-1.1144376365746007,-0.9775869411281128,-0.9,0.0,6.283185307179586,0.8928896814158902,1.5303337574005127,1.653092622756958,0.0,6.283185307179586,0.2559527009485437,0.028468580916523933,-0.02,0.0,6.283185307179586
4.365978002548218,0.7930696530610134,0.1083797737956047,2.0,0.0,1.7453292519943295,-0.6194636393370324,-0.7700119775584717,-0.8,0.0,6.283185307179586,-1.749555372343873,-1.7365270853042603,-1.8,0.0,6.283185307179586,-1.1300859206315592,-0.9833609026721497,-0.9,0.0,6.283185307179586,0.8714996628046014,1.4986599683761597,1.653092622756958,0.0,6.283185307179586,0.2633398697071322,0.03974246233701706,-0.02,0.0,6.283185307179586
4.469779968261719,0.8208094331588166,0.15206894278526306,2.0,0.0,1.7453292519943295,-0.606198480768565,-0.7614699763110657,-0.8,0.0,6.283185307179586,-1.7509810046646217,-1.737247347831726,-1.8,0.0,6.283185307179586,-1.150061415075717,-0.9906972807696839,-0.9,0.0,6.283185307179586,0.8447427493231278,1.458898901939392,1.653092622756958,0.0,6.283185307179586,0.27299227330734765,0.05409462749958038,-0.02,0.0,6.283185307179586
4.56999397277832,0.8490742275326266,0.19658257067203522,2.0,0.0,1.7453292519943295,-0.5923152920302746,-0.7525499624064942,-0.8,0.0,6.283185307179586,-1.7527063254758561,-1.7380210161209106,-1.8,0.0,6.283185307179586,-1.1704473441298608,-0.9982093137553711,-0.9,0.0,6.283185307179586,0.8175973061718956,1.4183554649353027,1.653092622756958,0.0,6.283185307179586,0.28299203945976226,0.06855542957782745,-0.02,0.0,6.283185307179586
4.668698072433472,0.8819958192405789,0.24843095242977142,2.0,0.0,1.7453292519943295,-0.5758749245088176,-0.7419225734523316,-0.8,0.0,6.283185307179586,-1.7546855188978239,-1.738844394683838,-1.8,0.0,6.283185307179586,-1.1946233527439825,-1.007495717411377,-0.9,0.0,6.283185307179586,0.7862224314833199,1.3711007833480835,1.653092622756958,0.0,6.283185307179586,0.29523652449631277,0.08552780002355576,-0.02,0.0,6.283185307179586
4.770339012145996,0.9136667145724452,0.29833438992500305,2.0,0.0,1.7453292519943295,-0.5597596178412625,-0.7316111487201233,-0.8,0.0,6.283185307179586,-1.7561351063952606,-1.7397620677947998,-1.8,0.0,6.283185307179586,-1.2189456382157569,-1.0170269173434754,-0.9,0.0,6.283185307179586,0.7563648909648286,1.3256666660308838,1.653092622756958,0.0,6.283185307179586,0.30777722115698813,0.1018175333738327,-0.02,0.0,6.283185307179586
4.866384029388428,0.9486907567332209,0.35353565216064453,2.0,0.0,1.7453292519943295,-0.5417262780292749,-0.719915048485138,-0.8,0.0,6.283185307179586,-1.7578549328064508,-1.740782618522644,-1.8,0.0,6.283185307179586,-1.2461739614955465,-1.0279200834086915,-0.9,0.0,6.283185307179586,0.7234935535572592,1.275073766708374,1.653092622756958,0.0,6.283185307179586,0.32223421616958103,0.11992855370044708,-0.02,0.0,6.283185307179586
4.966846942901611,0.9812428253369688,0.40486040711402893,2.0,0.0,1.7453292519943295,-0.5251548186925797,-0.7084807914546509,-0.8,0.0,6.283185307179586,-1.7592254682125779,-1.7417649030685425,-1.8,0.0,6.283185307179586,-1.271838154480999,-1.0388422173312684,-0.9,0.0,6.283185307179586,0.6932386678441902,1.2280417680740356,1.653092622756958,0.0,6.283185307179586,0.3362620903408602,0.136621356010437,-0.02,0.0,6.283185307179586
5.071167945861816,1.01624961988847,0.46010881662368774,2.0,0.0,1.7453292519943295,-0.5075745546181644,-0.6958691042712708,-0.8,0.0,6.283185307179586,-1.759739815061642,-1.7429219484329224,-1.8,0.0,6.283185307179586,-1.300969962291961,-1.0519252580455323,-0.9,0.0,6.283185307179586,0.6611445214112109,1.177471399307251,1.653092622756958,0.0,6.283185307179586,0.3526229803794943,0.1549035757780075,-0.02,0.0,6.283185307179586
5.16808009147644,1.0479247032193535,0.510132908821106,2.0,0.0,1.7453292519943295,-0.4920834199491123,-0.6837714475444336,-0.8,0.0,6.283185307179586,-1.7601647758235135,-1.744027853012085,-1.8,0.0,6.283185307179586,-1.3273453703784912,-1.0644353193095704,-0.9,0.0,6.283185307179586,0.6322640844573921,1.131446361541748,1.653092622756958,0.0,6.283185307179586,0.36794403270297504,0.17131589353084564,-0.02,0.0,6.283185307179586
5.267724990844727,1.0814386962690756,0.5631183981895447,2.0,0.0,1.7453292519943295,-0.4765878427887309,-0.6701870721629639,-0.8,0.0,6.283185307179586,-1.7595807800477925,-1.7452038526535034,-1.8,0.0,6.283185307179586,-1.3564015817396553,-1.0795353812030335,-0.9,0.0,6.283185307179586,0.6021348251622749,1.0827419757843018,1.653092622756958,0.0,6.283185307179586,0.3854157131136089,0.18896809220314026,-0.02,0.0,6.283185307179586
5.3688130378723145,1.1113014807401447,0.610402524471283,2.0,0.0,1.7453292519943295,-0.463310487728814,-0.6575663846782227,-0.8,0.0,6.283185307179586,-1.7586213027627677,-1.7463732957839966,-1.8,0.0,6.283185307179586,-1.3829570991675428,-1.093940721159317,-0.9,0.0,6.283185307179586,0.5754790355797532,1.0390856266021729,1.653092622756958,0.0,6.283185307179586,0.401847428854308,0.20479010045528412,-0.02,0.0,6.283185307179586
5.466397047042847,1.142507564276312,0.659887969493866,2.0,0.0,1.7453292519943295,-0.4508125044635388,-0.6432827872088929,-0.8,0.0,6.283185307179586,-1.7563990147488382,-1.7477105855941772,-1.8,0.0,6.283185307179586,-1.4118410553968004,-1.1112292867949982,-0.9,0.0,6.283185307179586,0.5479961512565902,0.9933178424835205,1.653092622756958,0.0,6.283185307179586,0.42038479685642194,0.22167102992534637,-0.02,0.0,6.283185307179586
5.570028066635132,1.1701908755368808,0.7038769125938416,2.0,0.0,1.7453292519943295,-0.4403082537415767,-0.6301061672023316,-0.8,0.0,6.283185307179586,-1.7541197784340177,-1.7488290071487427,-1.8,0.0,6.283185307179586,-1.4379613015325132,-1.1276061993888398,-0.9,0.0,6.283185307179586,0.5238459870740073,0.952730655670166,1.653092622756958,0.0,6.283185307179586,0.43768616940622934,0.23688095808029175,-0.02,0.0,6.283185307179586
5.669553995132446,1.198919569805784,0.7496213912963867,2.0,0.0,1.7453292519943295,-0.4310891982805085,-0.6152123373797913,-0.8,0.0,6.283185307179586,-1.7505160927205352,-1.750111699104309,-1.8,0.0,6.283185307179586,-1.466209156660206,-1.147121087913849,-0.9,0.0,6.283185307179586,0.49904764335873925,0.9101807475090027,1.653092622756958,0.0,6.283185307179586,0.4571557542281744,0.2531256675720215,-0.02,0.0,6.283185307179586
5.768343925476074,1.224228037883181,0.7900359034538269,2.0,0.0,1.7453292519943295,-0.4236279953051235,-0.6016535323909302,-0.8,0.0,6.283185307179586,-1.7467927127304335,-1.7512052059173584,-1.8,0.0,6.283185307179586,-1.4920553953152922,-1.1656588476947327,-0.9,0.0,6.283185307179586,0.47745914544356327,0.8727324604988098,1.653092622756958,0.0,6.283185307179586,0.4753718876398535,0.267790824174881,-0.02,0.0,6.283185307179586
5.87031888961792,1.2505462954583724,0.832173228263855,2.0,0.0,1.7453292519943295,-0.41721967200131704,-0.5864827793887635,-0.8,0.0,6.283185307179586,-1.7421789725757473,-1.7522485256195068,-1.8,0.0,6.283185307179586,-1.5195894066976976,-1.1870306593230744,-0.9,0.0,6.283185307179586,0.4553282535839522,0.833846926689148,1.653092622756958,0.0,6.283185307179586,0.49560820644313974,0.283682644367218,-0.02,0.0,6.283185307179586
5.970699071884155,1.2737923559030526,0.8695291876792908,2.0,0.0,1.7453292519943295,-0.4124021718983667,-0.5726965230754395,-0.8,0.0,6.283185307179586,-1.737343777674826,-1.753044605255127,-1.8,0.0,6.283185307179586,-1.5453517062495608,-1.2078033250621338,-0.9,0.0,6.283185307179586,0.4360164875886532,0.7993048429489136,1.653092622756958,0.0,6.283185307179586,0.5148327586854045,0.29816490411758423,-0.02,0.0,6.283185307179586
6.069267988204956,1.2977866759311416,0.9082137942314148,2.0,0.0,1.7453292519943295,-0.4084103729515507,-0.5577104848674317,-0.8,0.0,6.283185307179586,-1.7321369374604125,-1.753665566444397,-1.8,0.0,6.283185307179586,-1.5723135844148761,-1.2308172148517151,-0.9,0.0,6.283185307179586,0.4162692252778125,0.7635614275932312,1.653092622756958,0.0,6.283185307179586,0.5359155711965601,0.31396782398223877,-0.02,0.0,6.283185307179586
6.168271064758301,1.3190496114979642,0.9426373839378357,2.0,0.0,1.7453292519943295,-0.4056360636373295,-0.5440119069865723,-0.8,0.0,6.283185307179586,-1.726975441432809,-1.7540059089660645,-1.8,0.0,6.283185307179586,-1.5973696623488451,-1.2530023020556946,-0.9,0.0,6.283185307179586,0.3990372703262822,0.7318942546844482,1.653092622756958,0.0,6.283185307179586,0.5558637108924799,0.32855239510536194,-0.02,0.0,6.283185307179586
6.271245002746582,1.3409440523853822,0.9782555103302002,2.0,0.0,1.7453292519943295,-0.403492224379095,-0.5296740096858521,-0.8,0.0,6.283185307179586,-1.7209290592431405,-1.7541656494140625,-1.8,0.0,6.283185307179586,-1.6249640977050084,-1.2779290837100525,-0.9,0.0,6.283185307179586,0.38158073791272357,0.6991509795188904,1.653092622756958,0.0,6.283185307179586,0.5780889635563569,0.34461596608161926,-0.02,0.0,6.283185307179586
6.369492053985596,1.3604155541382505,1.0100855827331543,2.0,0.0,1.7453292519943295,-0.40202164210809954,-0.516675667171814,-0.8,0.0,6.283185307179586,-1.7152871689777753,-1.7541146278381348,-1.8,0.0,6.283185307179586,-1.6504714516954493,-1.301445261841156,-0.9,0.0,6.283185307179586,0.3663024395732787,0.6701353192329407,1.653092622756958,0.0,6.283185307179586,0.5989118526264666,0.3594857454299927,-0.02,0.0,6.283185307179586
6.470966100692749,1.3805473846263219,1.0431625843048096,2.0,0.0,1.7453292519943295,-0.40070137952853224,-0.5033567708781739,-0.8,0.0,6.283185307179586,-1.7093579656313471,-1.7535138130187988,-1.8,0.0,6.283185307179586,-1.6780692974596674,-1.3272318255952378,-0.9,0.0,6.283185307179586,0.3507667431360313,0.6401714086532593,1.653092622756958,0.0,6.283185307179586,0.6218636642846274,0.3760559856891632,-0.02,0.0,6.283185307179586
6.569973945617676,1.39835532603931,1.0725693702697754,2.0,0.0,1.7453292519943295,-0.3999309666438118,-0.4914248746684571,-0.8,0.0,6.283185307179586,-1.7041762697294693,-1.7524412870407104,-1.8,0.0,6.283185307179586,-1.7031422382432035,-1.3514593851617356,-0.9,0.0,6.283185307179586,0.337212985187932,0.6136144399642944,1.653092622756958,0.0,6.283185307179586,0.643302868492394,0.39154115319252014,-0.02,0.0,6.283185307179586
6.6700029373168945,1.4169183831330177,1.103427767753601,2.0,0.0,1.7453292519943295,-0.3989540712101752,-0.4795120519450684,-0.8,0.0,6.283185307179586,-1.6982830058010014,-1.7509156465530396,-1.8,0.0,6.283185307179586,-1.7314600212621754,-1.3782640260509034,-0.9,0.0,6.283185307179586,0.3234654718742229,0.5861023664474487,1.653092622756958,0.0,6.283185307179586,0.6670863622202123,0.4088206887245178,-0.02,0.0,6.283185307179586
6.769301891326904,1.4332110769650648,1.130686640739441,2.0,0.0,1.7453292519943295,-0.39840883036219427,-0.46909053743396,-0.8,0.0,6.283185307179586,-1.6929292734353347,-1.7490588426589966,-1.8,0.0,6.283185307179586,-1.7575819188960171,-1.4035131198218842,-0.9,0.0,6.283185307179586,0.31163313457629727,0.5618048906326294,1.653092622756958,0.0,6.283185307179586,0.6893019506475501,0.42504891753196716,-0.02,0.0,6.283185307179586
6.869304895401001,1.450193148577754,1.1592965126037598,2.0,0.0,1.7453292519943295,-0.39751657145304253,-0.45869918287310796,-0.8,0.0,6.283185307179586,-1.687139410419552,-1.7467665672302246,-1.8,0.0,6.283185307179586,-1.7863793066066134,-1.4308810097030182,-0.9,0.0,6.283185307179586,0.2996405734394507,0.5367043018341064,1.653092622756958,0.0,6.283185307179586,0.7135626244411868,0.4431518614292145,-0.02,0.0,6.283185307179586
6.968401908874512,1.4653092165110202,1.184938669204712,2.0,0.0,1.7453292519943295,-0.3963677154249475,-0.44999154031787114,-0.8,0.0,6.283185307179586,-1.6819631576223568,-1.7440987825393677,-1.8,0.0,6.283185307179586,-1.8132814658508694,-1.4562757846764107,-0.9,0.0,6.283185307179586,0.289281909339113,0.5145624279975891,1.653092622756958,0.0,6.283185307179586,0.7361396123252497,0.4603806138038635,-0.02,0.0,6.283185307179586
7.067166090011597,1.4808538116860008,1.2115265130996704,2.0,0.0,1.7453292519943295,-0.3950429089949805,-0.4414598506740113,-0.8,0.0,6.283185307179586,-1.6764261942216698,-1.7409380674362183,-1.8,0.0,6.283185307179586,-1.8425928228465813,-1.4838549581221123,-0.9,0.0,6.283185307179586,0.278885515468126,0.49158933758735657,1.653092622756958,0.0,6.283185307179586,0.7606356180736045,0.47946807742118835,-0.02,0.0,6.283185307179586
7.165837049484253,1.494584978275153,1.2352043390274048,2.0,0.0,1.7453292519943295,-0.3936828443321523,-0.434325174694397,-0.8,0.0,6.283185307179586,-1.6714322508806676,-1.737644076347351,-1.8,0.0,6.283185307179586,-1.8697615405181836,-1.5094676551273842,-0.9,0.0,6.283185307179586,0.2699673860516391,0.4712279438972473,1.653092622756958,0.0,6.283185307179586,0.783345340915457,0.4976711571216583,-0.02,0.0,6.283185307179586
7.270526885986328,1.5088612734128009,1.2600293159484863,2.0,0.0,1.7453292519943295,-0.3919054120222011,-0.42748578012500005,-0.8,0.0,6.283185307179586,-1.6657511020773206,-1.7336751222610474,-1.8,0.0,6.283185307179586,-1.8997076185389994,-1.5374798116138955,-0.9,0.0,6.283185307179586,0.26118453836315125,0.450470507144928,1.653092622756958,0.0,6.283185307179586,0.8077449604927698,0.5176790356636047,-0.02,0.0,6.283185307179586
7.365751028060913,1.521472367975627,1.2821601629257202,2.0,0.0,1.7453292519943295,-0.3900646812184825,-0.4219587606242676,-0.8,0.0,6.283185307179586,-1.6604536085638342,-1.7296795845031738,-1.8,0.0,6.283185307179586,-1.9276286760415038,-1.5635611799410363,-0.9,0.0,6.283185307179586,0.25375446358875287,0.4321116507053375,1.653092622756958,0.0,6.283185307179586,0.8302956924926954,0.5368404984474182,-0.02,0.0,6.283185307179586
7.465754985809326,1.5345008834575262,1.3052458763122559,2.0,0.0,1.7453292519943295,-0.3878130512404354,-0.416825608616211,-0.8,0.0,6.283185307179586,-1.654488439792419,-1.7251452207565308,-1.8,0.0,6.283185307179586,-1.9581325644413705,-1.591896196404928,-0.9,0.0,6.283185307179586,0.24649383257335664,0.4132709801197052,1.653092622756958,0.0,6.283185307179586,0.854379465423587,0.5579805374145508,-0.02,0.0,6.283185307179586
7.570291042327881,1.5459595126429475,1.325714349746704,2.0,0.0,1.7453292519943295,-0.38582476499688656,-0.41248972833666997,-0.8,0.0,6.283185307179586,-1.6490938410381293,-1.7206206321716309,-1.8,0.0,6.283185307179586,-1.9856577943887925,-1.618052145043844,-0.9,0.0,6.283185307179586,0.24042097663152495,0.39678528904914856,1.653092622756958,0.0,6.283185307179586,0.8762529966769745,0.577854335308075,-0.02,0.0,6.283185307179586
7.668373107910156,1.55784194601432,1.347142219543457,2.0,0.0,1.7453292519943295,-0.3834271567789751,-0.40852947652850347,-0.8,0.0,6.283185307179586,-1.6430930101233552,-1.7155332565307617,-1.8,0.0,6.283185307179586,-2.0155186591755454,-1.646393438378805,-0.9,0.0,6.283185307179586,0.23450496696472678,0.37977835536003113,1.653092622756958,0.0,6.283185307179586,0.8996045312294871,0.5999600291252136,-0.02,0.0,6.283185307179586
7.768693923950195,1.5682962256949295,1.3661688566207886,2.0,0.0,1.7453292519943295,-0.3811947878849555,-0.40539296091113286,-0.8,0.0,6.283185307179586,-1.63723183159925,-1.7107353210449219,-1.8,0.0,6.283185307179586,-2.042993799435514,-1.672638555566305,-0.9,0.0,6.283185307179586,0.22971772219909634,0.36503836512565613,1.653092622756958,0.0,6.283185307179586,0.9206598292990928,0.6206541657447815,-0.02,0.0,6.283185307179586
7.8702309131622314,1.579054790212668,1.3859437704086304,2.0,0.0,1.7453292519943295,-0.37893148193289616,-0.40238066137347417,-0.8,0.0,6.283185307179586,-1.6306814444718059,-1.7054991722106934,-1.8,0.0,6.283185307179586,-2.072357518024484,-1.7012001476683558,-0.9,0.0,6.283185307179586,0.22514113159872703,0.34983330965042114,1.653092622756958,0.0,6.283185307179586,0.942906717747001,0.6432986855506897,-0.02,0.0,6.283185307179586
7.970516920089722,1.588596872069004,1.4035944938659668,2.0,0.0,1.7453292519943295,-0.3769532158720535,-0.39995773256335454,-0.8,0.0,6.283185307179586,-1.6244381970711925,-1.7003252506256104,-1.8,0.0,6.283185307179586,-2.0991054050377023,-1.727718015710348,-0.9,0.0,6.283185307179586,0.2215000684160397,0.33671170473098755,1.653092622756958,0.0,6.283185307179586,0.9631129058075123,0.664671778678894,-0.02,0.0,6.283185307179586
8.06729793548584,1.5983315009848058,1.4217675924301147,2.0,0.0,1.7453292519943295,-0.37515098513567313,-0.3976743978312989,-0.8,0.0,6.283185307179586,-1.6172953996553063,-1.6947195529937744,-1.8,0.0,6.283185307179586,-2.1276883634657358,-1.7566291294493617,-0.9,0.0,6.283185307179586,0.21821329096548042,0.3233902156352997,1.653092622756958,0.0,6.283185307179586,0.9844412221906871,0.6880457401275635,-0.02,0.0,6.283185307179586
8.165918111801147,1.6069822231128832,1.4380160570144653,2.0,0.0,1.7453292519943295,-0.3737242403141091,-0.3957762283137818,-0.8,0.0,6.283185307179586,-1.6103973333493435,-1.689375400543213,-1.8,0.0,6.283185307179586,-2.153726904855716,-1.7835413418211878,-0.9,0.0,6.283185307179586,0.21566939755503628,0.3118717074394226,1.653092622756958,0.0,6.283185307179586,1.0036023506949285,0.7096008658409119,-0.02,0.0,6.283185307179586
8.266503095626831,1.6158328692523463,1.454736351966858,2.0,0.0,1.7453292519943295,-0.3727590367015523,-0.39374907434497075,-0.8,0.0,6.283185307179586,-1.602690141893082,-1.6835904121398926,-1.8,0.0,6.283185307179586,-2.1811089057104955,-1.8127194843687953,-0.9,0.0,6.283185307179586,0.21344504549706433,0.30024072527885437,1.653092622756958,0.0,6.283185307179586,1.0239279712269969,0.7332068085670471,-0.02,0.0,6.283185307179586
8.369132041931152,1.6236603753053171,1.4695923328399658,2.0,0.0,1.7453292519943295,-0.37209666903911054,-0.3921157878688355,-0.8,0.0,6.283185307179586,-1.5952985862043993,-1.6781922578811646,-1.8,0.0,6.283185307179586,-2.206002796290651,-1.839639802972311,-0.9,0.0,6.283185307179586,0.21182718004640308,0.2902381718158722,1.653092622756958,0.0,6.283185307179586,1.042219454804715,0.7550614476203918,-0.02,0.0,6.283185307179586
8.470355033874512,1.631688948191616,1.4848792552947998,2.0,0.0,1.7453292519943295,-0.37186922473253115,-0.3904126447490235,-0.8,0.0,6.283185307179586,-1.5870000307644727,-1.672434687614441,-1.8,0.0,6.283185307179586,-2.232203198406843,-1.8685604534544886,-0.9,0.0,6.283185307179586,0.21054431662296924,0.2803210914134979,1.653092622756958,0.0,6.283185307179586,1.061390844162204,0.7784872651100159,-0.02,0.0,6.283185307179586
8.570061922073364,1.6388372244136247,1.4984841346740723,2.0,0.0,1.7453292519943295,-0.3721756593413099,-0.38887138784442143,-0.8,0.0,6.283185307179586,-1.5792238047178402,-1.6667627096176147,-1.8,0.0,6.283185307179586,-2.255824509688402,-1.895433088342184,-0.9,0.0,6.283185307179586,0.20971636381893474,0.2718639671802521,1.653092622756958,0.0,6.283185307179586,1.078972643216289,0.8001464009284973,-0.02,0.0,6.283185307179586
8.66791296005249,1.6462298865940295,1.5125869512557983,2.0,0.0,1.7453292519943295,-0.37301828161037376,-0.38732369363818364,-0.8,0.0,6.283185307179586,-1.5705694110497865,-1.66049063205719,-1.8,0.0,6.283185307179586,-2.2810410347509498,-1.9247776470580042,-0.9,0.0,6.283185307179586,0.2091888632701988,0.2632814049720764,1.653092622756958,0.0,6.283185307179586,1.0978650993502228,0.8237367272377014,-0.02,0.0,6.283185307179586
8.77015995979309,1.6527761154328389,1.5250385999679565,2.0,0.0,1.7453292519943295,-0.3742409749099677,-0.3858941358378907,-0.8,0.0,6.283185307179586,-1.5624305231918751,-1.6546980142593384,-1.8,0.0,6.283185307179586,-2.3036314215921383,-1.9514614544310511,-0.9,0.0,6.283185307179586,0.20901013476997288,0.25615018606185913,1.653092622756958,0.0,6.283185307179586,1.1149527764719531,0.845227837562561,-0.02,0.0,6.283185307179586
8.868083953857422,1.6594903111822392,1.5377894639968872,2.0,0.0,1.7453292519943295,-0.3763004458785951,-0.384310321216919,-0.8,0.0,6.283185307179586,-1.5533875217715531,-1.6483455896377563,-1.8,0.0,6.283185307179586,-2.3275372266873116,-1.9804092846312464,-0.9,0.0,6.283185307179586,0.20917159838977945,0.2491627186536789,1.653092622756958,0.0,6.283185307179586,1.1332871489505858,0.868206262588501,-0.02,0.0,6.283185307179586
8.967097997665405,1.6654551238285333,1.5490952730178833,2.0,0.0,1.7453292519943295,-0.37853013469891866,-0.3830123704722901,-0.8,0.0,6.283185307179586,-1.5448161997586298,-1.6424529552459717,-1.8,0.0,6.283185307179586,-2.349369133065728,-2.007033487359518,-0.9,0.0,6.283185307179586,0.2095826588877961,0.24328534305095673,1.653092622756958,0.0,6.283185307179586,1.1499338995352049,0.889089047908783,-0.02,0.0,6.283185307179586
9.070194005966187,1.671678424423013,1.5607938766479492,2.0,0.0,1.7453292519943295,-0.3815819405598287,-0.3816250127604981,-0.8,0.0,6.283185307179586,-1.535514671971672,-1.6356909275054932,-1.8,0.0,6.283185307179586,-2.372479029808234,-2.0357405147948207,-0.9,0.0,6.283185307179586,0.21031009312269408,0.23766718804836273,1.653092622756958,0.0,6.283185307179586,1.1681655285488783,0.9115923643112183,-0.02,0.0,6.283185307179586
9.168566942214966,1.6771259425636458,1.5709927082061768,2.0,0.0,1.7453292519943295,-0.3848082393980905,-0.38051875055346684,-0.8,0.0,6.283185307179586,-1.5268556313325108,-1.629355549812317,-1.8,0.0,6.283185307179586,-2.3934398328763242,-2.0620438061156214,-0.9,0.0,6.283185307179586,0.21121768211006778,0.23302964866161346,1.653092622756958,0.0,6.283185307179586,1.18482101216601,0.9319557547569275,-0.02,0.0,6.283185307179586
9.26980996131897,1.68288211022692,1.5816705226898193,2.0,0.0,1.7453292519943295,-0.3886029196276323,-0.3794858020595093,-0.8,0.0,6.283185307179586,-1.5175039110973445,-1.6222294569015503,-1.8,0.0,6.283185307179586,-2.415742738045763,-2.090098043481344,-0.9,0.0,6.283185307179586,0.21239233996864287,0.2286442071199417,1.653092622756958,0.0,6.283185307179586,1.202836179765995,0.9536265730857849,-0.02,0.0,6.283185307179586
9.368874073028564,1.6879603413474353,1.5910295248031616,2.0,0.0,1.7453292519943295,-0.3923997671344802,-0.3787384790233155,-0.8,0.0,6.283185307179586,-1.5087373490358822,-1.615675926208496,-1.8,0.0,6.283185307179586,-2.4361397598244747,-2.115659376183981,-0.9,0.0,6.283185307179586,0.21369050293007594,0.22512347996234894,1.653092622756958,0.0,6.283185307179586,1.2193866963891353,0.9734224081039429,-0.02,0.0,6.283185307179586
9.469151973724365,1.6932584552168424,1.600710153579712,2.0,0.0,1.7453292519943295,-0.3968280988869312,-0.3781004709056397,-0.8,0.0,6.283185307179586,-1.4992508511661808,-1.6084609031677246,-1.8,0.0,6.283185307179586,-2.457870762652233,-2.142928739587301,-0.9,0.0,6.283185307179586,0.21527166017466967,0.22184893488883972,1.653092622756958,0.0,6.283185307179586,1.2372341930281041,0.994437575340271,-0.02,0.0,6.283185307179586
9.569681882858276,1.6979655997103722,1.6092127561569214,2.0,0.0,1.7453292519943295,-0.40121953974289976,-0.37778575838122563,-0.8,0.0,6.283185307179586,-1.4906984153363942,-1.6012954711914062,-1.8,0.0,6.283185307179586,-2.4775914717892107,-2.1678620777525843,-0.9,0.0,6.283185307179586,0.21689280415055656,0.21930193901062012,1.653092622756958,0.0,6.283185307179586,1.2539005424968532,1.0135117769241333,-0.02,0.0,6.283185307179586
9.666709899902344,1.7029348332144394,1.618096113204956,2.0,0.0,1.7453292519943295,-0.4062389374619403,-0.3776884836009522,-0.8,0.0,6.283185307179586,-1.481335129549219,-1.593366026878357,-1.8,0.0,6.283185307179586,-2.498920604842688,-2.1946331463255824,-0.9,0.0,6.283185307179586,0.2188361691404933,0.21704323589801788,1.653092622756958,0.0,6.283185307179586,1.272078835362875,1.034010410308838,-0.02,0.0,6.283185307179586
9.769331932067871,1.7072555674366539,1.6257407665252686,2.0,0.0,1.7453292519943295,-0.4112737047913259,-0.37774117410693364,-0.8,0.0,6.283185307179586,-1.4727057503905678,-1.5859827995300293,-1.8,0.0,6.283185307179586,-2.518272224611475,-2.21909823040151,-0.9,0.0,6.283185307179586,0.22079084422810588,0.21538567543029785,1.653092622756958,0.0,6.283185307179586,1.2887891951082546,1.0524660348892212,-0.02,0.0,6.283185307179586
9.867865085601807,1.7118995442900062,1.6338862180709839,2.0,0.0,1.7453292519943295,-0.4164696544511503,-0.3783160013011475,-0.8,0.0,6.283185307179586,-1.463218038771437,-1.5780105590820312,-1.8,0.0,6.283185307179586,-2.539437333658585,-2.2449614010252894,-0.9,0.0,6.283185307179586,0.22304630372857975,0.2140050232410431,1.653092622756958,0.0,6.283185307179586,1.3066980861581077,1.0723016262054443,-0.02,0.0,6.283185307179586
9.970746040344238,1.7159831126111722,1.6409385204315186,2.0,0.0,1.7453292519943295,-0.42129369632843283,-0.3793490690043946,-0.8,0.0,6.283185307179586,-1.4547213758874087,-1.5701788663864136,-1.8,0.0,6.283185307179586,-2.558718456742431,-2.2682844601073207,-0.9,0.0,6.283185307179586,0.22528176231857122,0.21318577229976654,1.653092622756958,0.0,6.283185307179586,1.323316882488175,1.0903047323226929,-0.02,0.0,6.283185307179586
10.070224046707153,1.7203138709700652,1.6483397483825684,2.0,0.0,1.7453292519943295,-0.426630271140919,-0.3806660932353516,-0.8,0.0,6.283185307179586,-1.4456418686040746,-1.5615464448928833,-1.8,0.0,6.283185307179586,-2.57933338277628,-2.2931601009764613,-0.9,0.0,6.283185307179586,0.2277765269511941,0.21258005499839783,1.653092622756958,0.0,6.283185307179586,1.3412841742991934,1.1095085144042969,-0.02,0.0,6.283185307179586
10.16874098777771,1.7241785337261932,1.65486478805542,2.0,0.0,1.7453292519943295,-0.4317022646011124,-0.38222606599841313,-0.8,0.0,6.283185307179586,-1.4370209931600442,-1.5535709857940674,-1.8,0.0,6.283185307179586,-2.59861559789353,-2.3160606823363246,-0.9,0.0,6.283185307179586,0.2302614556612387,0.21237491071224213,1.653092622756958,0.0,6.283185307179586,1.3579177622773415,1.1272248029708862,-0.02,0.0,6.283185307179586
10.269644021987915,1.7281177805741643,1.6614527702331543,2.0,0.0,1.7453292519943295,-0.4369813478490582,-0.3843246263316651,-0.8,0.0,6.283185307179586,-1.4278649327337742,-1.5451183319091797,-1.8,0.0,6.283185307179586,-2.6190700325628335,-2.3400141201415003,-0.9,0.0,6.283185307179586,0.2329948835118364,0.2123713195323944,1.653092622756958,0.0,6.283185307179586,1.3752713338422817,1.1456935405731201,-0.02,0.0,6.283185307179586
10.371582984924316,1.7317295612557975,1.6673829555511475,2.0,0.0,1.7453292519943295,-0.4418445398832751,-0.3865923446467896,-0.8,0.0,6.283185307179586,-1.4197033584995769,-1.5367995500564575,-1.8,0.0,6.283185307179586,-2.6377237169807186,-2.36156763652944,-0.9,0.0,6.283185307179586,0.23561645170317816,0.21273063123226166,1.653092622756958,0.0,6.283185307179586,1.3916772620130708,1.1628905534744263,-0.02,0.0,6.283185307179586
10.46804690361023,1.7355491416453088,1.6735761165618896,2.0,0.0,1.7453292519943295,-0.44726812996353205,-0.38935287416491704,-0.8,0.0,6.283185307179586,-1.4106784788175901,-1.5277090072631836,-1.8,0.0,6.283185307179586,-2.6581261346261207,-2.384970327416891,-0.9,0.0,6.283185307179586,0.2386006783700886,0.2133941799402237,1.653092622756958,0.0,6.283185307179586,1.4094530963496814,1.181391954421997,-0.02,0.0,6.283185307179586
10.570411920547485,1.739009246184169,1.6791245937347412,2.0,0.0,1.7453292519943295,-0.4522202072220879,-0.3923028272441407,-0.8,0.0,6.283185307179586,-1.4020622797675542,-1.519422173500061,-1.8,0.0,6.283185307179586,-2.6773066325329973,-2.4064671001830042,-0.9,0.0,6.283185307179586,0.24149516859241119,0.21426838636398315,1.653092622756958,0.0,6.283185307179586,1.4256833638825528,1.198359489440918,-0.02,0.0,6.283185307179586
10.670219898223877,1.742615366928595,1.684807538986206,2.0,0.0,1.7453292519943295,-0.4575337646375349,-0.3957664531520386,-0.8,0.0,6.283185307179586,-1.3929812328694124,-1.5103482007980347,-1.8,0.0,6.283185307179586,-2.6976642989183275,-2.4290510616698207,-0.9,0.0,6.283185307179586,0.24469061406425163,0.2154695987701416,1.653092622756958,0.0,6.283185307179586,1.4431843540850107,1.2166094779968262,-0.02,0.0,6.283185307179586
10.767575979232788,1.7458627651105263,1.6898499727249146,2.0,0.0,1.7453292519943295,-0.46234563022499586,-0.39927788198504643,-0.8,0.0,6.283185307179586,-1.384736555627289,-1.5018324851989746,-1.8,0.0,6.283185307179586,-2.7162934635878613,-2.4494782886900843,-0.9,0.0,6.283185307179586,0.24770128966563204,0.21676301956176758,1.653092622756958,0.0,6.283185307179586,1.4592696553293343,1.233360767364502,-0.02,0.0,6.283185307179586
10.869412899017334,1.7493379240865365,1.6951732635498047,2.0,0.0,1.7453292519943295,-0.4677330927239275,-0.4033084672740479,-0.8,0.0,6.283185307179586,-1.3756996214270534,-1.4924588203430176,-1.8,0.0,6.283185307179586,-2.736604763208532,-2.4717804394164027,-0.9,0.0,6.283185307179586,0.2510687253890139,0.21834039688110352,1.653092622756958,0.0,6.283185307179586,1.4767857905625292,1.2515021562576294,-0.02,0.0,6.283185307179586
10.966063022613525,1.7524159570825237,1.6998157501220703,2.0,0.0,1.7453292519943295,-0.472639982885218,-0.4072423738292237,-0.8,0.0,6.283185307179586,-1.367220641293171,-1.4841820001602173,-1.8,0.0,6.283185307179586,-2.7552809853360296,-2.4918986759581507,-0.9,0.0,6.283185307179586,0.2542529046317332,0.22000861167907715,1.653092622756958,0.0,6.283185307179586,1.4925425876523237,1.2680062055587769,-0.02,0.0,6.283185307179586
11.067004919052124,1.7557605987445666,1.7047863006591797,2.0,0.0,1.7453292519943295,-0.4778919386012386,-0.4117749494365235,-0.8,0.0,6.283185307179586,-1.3582967272837954,-1.474808692932129,-1.8,0.0,6.283185307179586,-2.775289979235281,-2.513294359246725,-0.9,0.0,6.283185307179586,0.2577587035030438,0.2220073789358139,1.653092622756958,0.0,6.283185307179586,1.5098503418285563,1.2860561609268188,-0.02,0.0,6.283185307179586
11.169357061386108,1.7587503355846597,1.709149718284607,2.0,0.0,1.7453292519943295,-0.4830469391399213,-0.41602952898059087,-0.8,0.0,6.283185307179586,-1.349933599113285,-1.4661763906478882,-1.8,0.0,6.283185307179586,-2.7937331295242394,-2.5332967243590296,-0.9,0.0,6.283185307179586,0.2610808796995806,0.22400256991386414,1.653092622756958,0.0,6.283185307179586,1.525740459351702,1.3024847507476807,-0.02,0.0,6.283185307179586
11.26963496208191,1.761921210615577,1.7137171030044556,2.0,0.0,1.7453292519943295,-0.48839781601216015,-0.4208778899959107,-0.8,0.0,6.283185307179586,-1.3410466342332674,-1.456932544708252,-1.8,0.0,6.283185307179586,-2.813447540550801,-2.554340978662008,-0.9,0.0,6.283185307179586,0.2646904050329955,0.22623977065086365,1.653092622756958,0.0,6.283185307179586,1.5427626197437785,1.3203530311584473,-0.02,0.0,6.283185307179586
11.366869926452637,1.7647832127809495,1.7177722454071045,2.0,0.0,1.7453292519943295,-0.49338676556330857,-0.42548902452502446,-0.8,0.0,6.283185307179586,-1.3327346397701145,-1.4485833644866943,-1.8,0.0,6.283185307179586,-2.8316037401136653,-2.573580881158346,-0.9,0.0,6.283185307179586,0.26809562859665037,0.22848621010780334,1.653092622756958,0.0,6.283185307179586,1.5582725176063732,1.3367146253585815,-0.02,0.0,6.283185307179586
11.470787048339844,1.7678993631642335,1.722118854522705,2.0,0.0,1.7453292519943295,-0.49912528099604614,-0.43057818830523686,-0.8,0.0,6.283185307179586,-1.3237106111390093,-1.4391835927963257,-1.8,0.0,6.283185307179586,-2.851267129897728,-2.5947886906065882,-0.9,0.0,6.283185307179586,0.27188335560052457,0.23110011219978333,1.653092622756958,0.0,6.283185307179586,1.5753330863383532,1.3544553518295288,-0.02,0.0,6.283185307179586
11.569853067398071,1.7707434319491488,1.7260313034057617,2.0,0.0,1.7453292519943295,-0.5043310791509604,-0.43541915834460454,-0.8,0.0,6.283185307179586,-1.3156247592621828,-1.4303923845291138,-1.8,0.0,6.283185307179586,-2.869105021267464,-2.613983770410055,-0.9,0.0,6.283185307179586,0.27538571464809447,0.23355668783187866,1.653092622756958,0.0,6.283185307179586,1.5911207455046508,1.3710182905197144,-0.02,0.0,6.283185307179586
11.668751955032349,1.7737269899713581,1.7300626039505005,2.0,0.0,1.7453292519943295,-0.5100863394728903,-0.44069261968646245,-0.8,0.0,6.283185307179586,-1.3065772650140288,-1.4214329719543457,-1.8,0.0,6.283185307179586,-2.888421891556605,-2.6346317730345667,-0.9,0.0,6.283185307179586,0.2792588339594485,0.23641422390937805,1.653092622756958,0.0,6.283185307179586,1.6077674543590834,1.3886725902557373,-0.02,0.0,6.283185307179586
11.769404888153076,1.7764255784973169,1.7336392402648926,2.0,0.0,1.7453292519943295,-0.5156212486118077,-0.4455542129329224,-0.8,0.0,6.283185307179586,-1.2984204602498242,-1.4129637479782104,-1.8,0.0,6.283185307179586,-2.9059173120949455,-2.6537944279112757,-0.9,0.0,6.283185307179586,0.28284831160230917,0.2390775829553604,1.653092622756958,0.0,6.283185307179586,1.6232406745531565,1.4049980640411377,-0.02,0.0,6.283185307179586
11.870465993881226,1.779357360959588,1.7374975681304932,2.0,0.0,1.7453292519943295,-0.5214971905980506,-0.45086200655017095,-0.8,0.0,6.283185307179586,-1.289927459686673,-1.4036213159561157,-1.8,0.0,6.283185307179586,-2.9242780566359308,-2.6739169559874476,-0.9,0.0,6.283185307179586,0.2867123192988556,0.24207529425621033,1.653092622756958,0.0,6.283185307179586,1.6398142127664088,1.422410249710083,-0.02,0.0,6.283185307179586
11.96897006034851,1.7819960145657192,1.7408826351165771,2.0,0.0,1.7453292519943295,-0.5271460588513793,-0.45591385782275395,-0.8,0.0,6.283185307179586,-1.28181557078044,-1.3951715230941772,-1.8,0.0,6.283185307179586,-2.941473972920869,-2.692845483819479,-0.9,0.0,6.283185307179586,0.2904028050941249,0.24499619007110596,1.653092622756958,0.0,6.283185307179586,1.6551185444529986,1.438659906387329,-0.02,0.0,6.283185307179586
12.068461894989014,1.7848200265812961,1.7444788217544556,2.0,0.0,1.7453292519943295,-0.5332225570292642,-0.46136804044757085,-0.8,0.0,6.283185307179586,-1.2731367188767215,-1.3862411975860596,-1.8,0.0,6.283185307179586,-2.9597584834453916,-2.713073869744772,-0.9,0.0,6.283185307179586,0.294369375732962,0.24816760420799255,1.653092622756958,0.0,6.283185307179586,1.671310776752989,1.4559239149093628,-0.02,0.0,6.283185307179586
12.16758394241333,1.7874403599422093,1.7477787733078003,2.0,0.0,1.7453292519943295,-0.538850160403017,-0.4664161962321778,-0.8,0.0,6.283185307179586,-1.2653604646719203,-1.377808690071106,-1.8,0.0,6.283185307179586,-2.9762174055652952,-2.7313605747618617,-0.9,0.0,6.283185307179586,0.2980564448671614,0.25122854113578796,1.653092622756958,0.0,6.283185307179586,1.6863703410056832,1.4720332622528076,-0.02,0.0,6.283185307179586
12.266390085220337,1.79021241813621,1.751196026802063,2.0,0.0,1.7453292519943295,-0.545241195009282,-0.4719187778285523,-0.8,0.0,6.283185307179586,-1.2569028597189362,-1.36863112449646,-1.8,0.0,6.283185307179586,-2.993952265554871,-2.751627107659811,-0.9,0.0,6.283185307179586,0.3020964861012792,0.25459057092666626,1.653092622756958,0.0,6.283185307179586,1.7025566526433422,1.4892274141311646,-0.02,0.0,6.283185307179586
12.367244958877563,1.7927718432740973,1.7543280124664307,2.0,0.0,1.7453292519943295,-0.5510052891923481,-0.47702260435137944,-0.8,0.0,6.283185307179586,-1.2491747500386998,-1.360383152961731,-1.8,0.0,6.283185307179586,-3.010054986987995,-2.7697750530638636,-0.9,0.0,6.283185307179586,0.30584752887998046,0.25781476497650146,1.653092622756958,0.0,6.283185307179586,1.7173741245848388,1.505276083946228,-0.02,0.0,6.283185307179586
12.471401929855347,1.7955233987904817,1.7576605081558228,2.0,0.0,1.7453292519943295,-0.5573714268862683,-0.4825788301280518,-0.8,0.0,6.283185307179586,-1.240855736444625,-1.351426362991333,-1.8,0.0,6.283185307179586,-3.0273108244171274,-2.789605756799215,-0.9,0.0,6.283185307179586,0.30992127318066276,0.2613324522972107,1.653092622756958,0.0,6.283185307179586,1.7332090555225255,1.522347092628479,-0.02,0.0,6.283185307179586
12.568303108215332,1.798025990773038,1.7606414556503296,2.0,0.0,1.7453292519943295,-0.5632246029596945,-0.4878288072398682,-0.8,0.0,6.283185307179586,-1.2333105657980714,-1.343088984489441,-1.8,0.0,6.283185307179586,-3.0430609174994565,-2.8078462086119593,-0.9,0.0,6.283185307179586,0.3136988495531089,0.2645987570285797,1.653092622756958,0.0,6.283185307179586,1.7477964120555693,1.5382112264633179,-0.02,0.0,6.283185307179586
12.669542074203491,1.8007069079662426,1.763805866241455,2.0,0.0,1.7453292519943295,-0.5694447308046644,-0.4935310643962403,-0.8,0.0,6.283185307179586,-1.2253518147025753,-1.334099531173706,-1.8,0.0,6.283185307179586,-3.0596335967333554,-2.827053209344381,-0.9,0.0,6.283185307179586,0.3177815045032848,0.2682408094406128,1.653092622756958,0.0,6.283185307179586,1.7633003808116605,1.5551598072052002,-0.02,0.0,6.283185307179586
12.76675009727478,1.8032061216205317,1.7667388916015625,2.0,0.0,1.7453292519943295,-0.5753570123143708,-0.49883826196704106,-0.8,0.0,6.283185307179586,-1.2177146810389035,-1.3261445760726929,-1.8,0.0,6.283185307179586,-3.075257498099264,-2.8452612362303675,-0.9,0.0,6.283185307179586,0.32162512838711127,0.2716566026210785,1.653092622756958,0.0,6.283185307179586,1.777521048851505,1.5708777904510498,-0.02,0.0,6.283185307179586
12.87066102027893,1.80587116905087,1.769842505455017,2.0,0.0,1.7453292519943295,-0.5815813668127953,-0.5045541089824219,-0.8,0.0,6.283185307179586,-1.2099793681891664,-1.3172262907028198,-1.8,0.0,6.283185307179586,-3.091285348908732,-2.864185472527975,-0.9,0.0,6.283185307179586,0.3257164662322295,0.2753898799419403,1.653092622756958,0.0,6.283185307179586,1.7927034783184235,1.5876401662826538,-0.02,0.0,6.283185307179586
12.969665050506592,1.8083140809470142,1.7726436853408813,2.0,0.0,1.7453292519943295,-0.5874371368045247,-0.5099006456187745,-0.8,0.0,6.283185307179586,-1.2028220850609472,-1.3090004920959473,-1.8,0.0,6.283185307179586,-3.1060354751493673,-2.88181795696401,-0.9,0.0,6.283185307179586,0.3295477308374375,0.2789146304130554,1.653092622756958,0.0,6.283185307179586,1.8067052095626925,1.6032047271728516,-0.02,0.0,6.283185307179586
13.06885290145874,1.8109493923061981,1.7756556272506714,2.0,0.0,1.7453292519943295,-0.5936075785428652,-0.515815333729126,-0.8,0.0,6.283185307179586,-1.1951412569916882,-1.300214409828186,-1.8,0.0,6.283185307179586,-3.121867401816394,-2.900679727593893,-0.9,0.0,6.283185307179586,0.33369554511450783,0.2827664017677307,1.653092622756958,0.0,6.283185307179586,1.8215195550850773,1.6197938919067383,-0.02,0.0,6.283185307179586
13.169867992401123,1.8133549027136129,1.77839195728302,2.0,0.0,1.7453292519943295,-0.5990432390828401,-0.5213657182506104,-0.8,0.0,6.283185307179586,-1.1881698325187842,-1.2923585176467896,-1.8,0.0,6.283185307179586,-3.1363347469636587,-2.917685648004049,-0.9,0.0,6.283185307179586,0.3374970264893494,0.2862900197505951,1.653092622756958,0.0,6.283185307179586,1.8349584600878994,1.6351653337478638,-0.02,0.0,6.283185307179586
13.269516944885254,1.8159239195168255,1.781261920928955,2.0,0.0,1.7453292519943295,-0.6052147180682792,-0.5273201030543824,-0.8,0.0,6.283185307179586,-1.180680754429967,-1.2837194204330444,-1.8,0.0,6.283185307179586,-3.151679970647824,-2.9363447628416957,-0.9,0.0,6.283185307179586,0.3416588652625503,0.29023292660713196,1.653092622756958,0.0,6.283185307179586,1.849384747643946,1.6515216827392578,-0.02,0.0,6.283185307179586
13.367011070251465,1.8182972834999174,1.7839293479919434,2.0,0.0,1.7453292519943295,-0.6106091636938454,-0.5328309100917359,-0.8,0.0,6.283185307179586,-1.1741008013121774,-1.2756989002227783,-1.8,0.0,6.283185307179586,-3.1653336156587457,-2.952822824517721,-0.9,0.0,6.283185307179586,0.3454429176884242,0.29386115074157715,1.653092622756958,0.0,6.283185307179586,1.8625455172939516,1.6666796207427979,-0.02,0.0,6.283185307179586
13.468111991882324,1.8207730454927609,1.7866542339324951,2.0,0.0,1.7453292519943295,-0.6165117871667901,-0.5387733739665528,-0.8,0.0,6.283185307179586,-1.1668924903267925,-1.2674942016601562,-1.8,0.0,6.283185307179586,-3.1800593923597065,-2.9708196125426234,-0.9,0.0,6.283185307179586,0.3495357410325392,0.2978056073188782,1.653092622756958,0.0,6.283185307179586,1.8762535025145266,1.6825209856033325,-0.02,0.0,6.283185307179586
13.570641040802002,1.823174661267972,1.789344072341919,2.0,0.0,1.7453292519943295,-0.6217161581579341,-0.5445363086513062,-0.8,0.0,6.283185307179586,-1.1602898351565496,-1.259695053100586,-1.8,0.0,6.283185307179586,-3.1938169495312874,-2.9872614345946253,-0.9,0.0,6.283185307179586,0.3533805393328319,0.3015124797821045,1.653092622756958,0.0,6.283185307179586,1.8891885550746852,1.6977821588516235,-0.02,0.0,6.283185307179586
13.670427083969116,1.8257230409762362,1.7921735048294067,2.0,0.0,1.7453292519943295,-0.6274402731173044,-0.5507046741298218,-0.8,0.0,6.283185307179586,-1.1533296237735913,-1.2511731386184692,-1.8,0.0,6.283185307179586,-3.208253114703688,-3.0050846538939417,-0.9,0.0,6.283185307179586,0.35750241123920545,0.3055245876312256,1.653092622756958,0.0,6.283185307179586,1.902790977340156,1.7136600017547607,-0.02,0.0,6.283185307179586
13.765888929367065,1.8280273189173555,1.7947160005569458,2.0,0.0,1.7453292519943295,-0.6325663437998711,-0.5563109678081055,-0.8,0.0,6.283185307179586,-1.147135002475891,-1.2434443235397339,-1.8,0.0,6.283185307179586,-3.221051465387653,-3.020857950250143,-0.9,0.0,6.283185307179586,0.36127293716332354,0.3092852830886841,1.653092622756958,0.0,6.283185307179586,1.91513765857223,1.7283216714859009,-0.02,0.0,6.283185307179586
13.868755102157593,1.8305242139930284,1.7974753379821777,2.0,0.0,1.7453292519943295,-0.638043227548345,-0.5624296230128785,-0.8,0.0,6.283185307179586,-1.140348785549108,-1.2354762554168701,-1.8,0.0,6.283185307179586,-3.2350655134325805,-3.038097997704977,-0.9,0.0,6.283185307179586,0.36535265123776384,0.3133253753185272,1.653092622756958,0.0,6.283185307179586,1.9281764723742236,1.743929386138916,-0.02,0.0,6.283185307179586
13.965683937072754,1.8327939165533422,1.7999716997146606,2.0,0.0,1.7453292519943295,-0.6429083390730397,-0.5681016010097046,-0.8,0.0,6.283185307179586,-1.1342764784998287,-1.2281638383865356,-1.8,0.0,6.283185307179586,-3.247633555908882,-3.0534821949400843,-0.9,0.0,6.283185307179586,0.3690983971737679,0.3171063959598541,1.653092622756958,0.0,6.283185307179586,1.9400015065536762,1.7582758665084839,-0.02,0.0,6.283185307179586
14.06850790977478,1.8352375562372638,1.8026580810546875,2.0,0.0,1.7453292519943295,-0.6481789671418553,-0.574234203701355,-0.8,0.0,6.283185307179586,-1.1278867423671195,-1.2200889587402344,-1.8,0.0,6.283185307179586,-3.2608955111995486,-3.0701071224608363,-0.9,0.0,6.283185307179586,0.37312231004922813,0.3211851418018341,1.653092622756958,0.0,6.283185307179586,1.952581010423982,1.773474931716919,-0.02,0.0,6.283185307179586
14.169301986694336,1.837470835514984,1.805113673210144,2.0,0.0,1.7453292519943295,-0.6529102764164001,-0.5798545640758057,-0.8,0.0,6.283185307179586,-1.1221686294858133,-1.2127166986465454,-1.8,0.0,6.283185307179586,-3.2728168738191226,-3.085083147088522,-0.9,0.0,6.283185307179586,0.37679646563258096,0.32493218779563904,1.653092622756958,0.0,6.283185307179586,1.964049363927977,1.7875170707702637,-0.02,0.0,6.283185307179586
14.266345024108887,1.839864904142698,1.8077375888824463,2.0,0.0,1.7453292519943295,-0.6579723437873269,-0.5859370988658448,-0.8,0.0,6.283185307179586,-1.1159407454618713,-1.2051200866699219,-1.8,0.0,6.283185307179586,-3.285706847204194,-3.1012360058226527,-0.9,0.0,6.283185307179586,0.38078228981872847,0.3290451765060425,1.653092622756958,0.0,6.283185307179586,1.9761048170304845,1.8023918867111206,-0.02,0.0,6.283185307179586
14.369426965713501,1.8420552150727523,1.8101484775543213,2.0,0.0,1.7453292519943295,-0.6624828032395774,-0.591500000362732,-0.8,0.0,6.283185307179586,-1.1103962822855316,-1.1981759071350098,-1.8,0.0,6.283185307179586,-3.297260792183064,-3.115739961663717,-0.9,0.0,6.283185307179586,0.3844042781537391,0.3328012228012085,1.653092622756958,0.0,6.283185307179586,1.9870481565565314,1.8160430192947388,-0.02,0.0,6.283185307179586
14.467473983764648,1.8444410128456177,1.81279456615448,2.0,0.0,1.7453292519943295,-0.6674404092585788,-0.5974207681468506,-0.8,0.0,6.283185307179586,-1.1045107029387555,-1.1905999183654785,-1.8,0.0,6.283185307179586,-3.3094523171019614,-3.13143314937734,-0.9,0.0,6.283185307179586,0.38830926215625294,0.3368878662586212,1.653092622756958,0.0,6.283185307179586,1.9987316883205621,1.8305755853652954,-0.02,0.0,6.283185307179586
14.569640874862671,1.846577560435307,1.8151395320892334,2.0,0.0,1.7453292519943295,-0.671896419037791,-0.6028662484935303,-0.8,0.0,6.283185307179586,-1.0992476420718549,-1.183646559715271,-1.8,0.0,6.283185307179586,-3.3203022143927963,-3.1454464397826136,-0.9,0.0,6.283185307179586,0.39188913534998177,0.3407169580459595,1.653092622756958,0.0,6.283185307179586,2.009282513499139,1.8438578844070435,-0.02,0.0,6.283185307179586
14.669702053070068,1.8489172295524883,1.8177409172058105,2.0,0.0,1.7453292519943295,-0.6766888284208809,-0.6086918872645875,-0.8,0.0,6.283185307179586,-1.0935998711187007,-1.1763464212417603,-1.8,0.0,6.283185307179586,-3.3320160710458198,-3.1607257328429164,-0.9,0.0,6.283185307179586,0.3957255831935334,0.34478694200515747,1.653092622756958,0.0,6.283185307179586,2.0204896626735667,1.8579864501953125,-0.02,0.0,6.283185307179586
14.768946886062622,1.8510237564432312,1.8200812339782715,2.0,0.0,1.7453292519943295,-0.6808532606626228,-0.61403842390094,-0.8,0.0,6.283185307179586,-1.088522596429234,-1.169894814491272,-1.8,0.0,6.283185307179586,-3.342526818505001,-3.174169202844137,-0.9,0.0,6.283185307179586,0.39922480533689486,0.3485822081565857,1.653092622756958,0.0,6.283185307179586,2.03048458173479,1.8708055019378662,-0.02,0.0,6.283185307179586
14.869688987731934,1.8533188958896294,1.8226433992385864,2.0,0.0,1.7453292519943295,-0.6854591482716234,-0.6197790068439026,-0.8,0.0,6.283185307179586,-1.0831603851742,-1.1627569198608398,-1.8,0.0,6.283185307179586,-3.3537382698617635,-3.189014574090475,-0.9,0.0,6.283185307179586,0.402976805397279,0.3525981903076172,1.653092622756958,0.0,6.283185307179586,2.0412981773882994,1.8846217393875122,-0.02,0.0,6.283185307179586
14.969465970993042,1.8553658502306323,1.8249238729476929,2.0,0.0,1.7453292519943295,-0.6895573484933311,-0.6249252122691651,-0.8,0.0,6.283185307179586,-1.078367174794363,-1.1564146280288696,-1.8,0.0,6.283185307179586,-3.363562451542319,-3.2019559345641078,-0.9,0.0,6.283185307179586,0.40639610620615746,0.3563956320285797,1.653092622756958,0.0,6.283185307179586,2.050890544116171,1.897048830986023,-0.02,0.0,6.283185307179586
15.069576025009155,1.8576094718584315,1.8274388313293457,2.0,0.0,1.7453292519943295,-0.6940721355214666,-0.6305071276477356,-0.8,0.0,6.283185307179586,-1.0732417633693732,-1.149463415145874,-1.8,0.0,6.283185307179586,-3.374192116142629,-3.2163530788817347,-0.9,0.0,6.283185307179586,0.41008255537635074,0.36043450236320496,1.653092622756958,0.0,6.283185307179586,2.061242620924625,1.910400390625,-0.02,0.0,6.283185307179586
15.170204877853394,1.85965121627455,1.8297542333602905,2.0,0.0,1.7453292519943295,-0.6979858180846079,-0.6355422896197815,-0.8,0.0,6.283185307179586,-1.0686672447759757,-1.1433104276657104,-1.8,0.0,6.283185307179586,-3.3836199941495777,-3.228881975213522,-0.9,0.0,6.283185307179586,0.41342310761028683,0.3641798198223114,1.653092622756958,0.0,6.283185307179586,2.0704653734683087,1.9224826097488403,-0.02,0.0,6.283185307179586
15.267831087112427,1.8618041052060978,1.832169771194458,2.0,0.0,1.7453292519943295,-0.7022524641635146,-0.6409326952746888,-0.8,0.0,6.283185307179586,-1.0637907177692056,-1.1368658542633057,-1.8,0.0,6.283185307179586,-3.3937109462558674,-3.2425481281676234,-0.9,0.0,6.283185307179586,0.41700770223511774,0.3682028353214264,1.653092622756958,0.0,6.283185307179586,2.080247630140985,1.9353413581848145,-0.02,0.0,6.283185307179586
15.369035005569458,1.8637991193323098,1.8344333171844482,2.0,0.0,1.7453292519943295,-0.7060946086875166,-0.6458838743022461,-0.8,0.0,6.283185307179586,-1.0594067814989065,-1.1309062242507935,-1.8,0.0,6.283185307179586,-3.4028384220072416,-3.254984041253561,-0.9,0.0,6.283185307179586,0.4202781581527597,0.37188175320625305,1.653092622756958,0.0,6.283185307179586,2.089137224742884,1.9470700025558472,-0.02,0.0,6.283185307179586
15.470169067382812,1.8659218882422988,1.836864948272705,2.0,0.0,1.7453292519943295,-0.7100999532299441,-0.6510974925807496,-0.8,0.0,6.283185307179586,-1.0548295949435784,-1.1245580911636353,-1.8,0.0,6.283185307179586,-3.4122342846431404,-3.2677837810912074,-0.9,0.0,6.283185307179586,0.42375543252775194,0.3758865296840668,1.653092622756958,0.0,6.283185307179586,2.0984341014660473,1.9594398736953735,-0.02,0.0,6.283185307179586
15.566340923309326,1.867867796897393,1.839095950126648,2.0,0.0,1.7453292519943295,-0.7139560929019133,-0.6557594698718567,-0.8,0.0,6.283185307179586,-1.0506888302460349,-1.1187366247177124,-1.8,0.0,6.283185307179586,-3.4207067093216663,-3.27984156231069,-0.9,0.0,6.283185307179586,0.42693034612643127,0.37953248620033264,1.653092622756958,0.0,6.283185307179586,2.1069388971529137,1.9707075357437134,-0.02,0.0,6.283185307179586
15.66680908203125,1.8699566256220437,1.8415166139602661,2.0,0.0,1.7453292519943295,-0.7177495320376579,-0.660851852302887,-0.8,0.0,6.283185307179586,-1.0463060608400492,-1.1127277612686157,-1.8,0.0,6.283185307179586,-3.4297703211850936,-3.292187353173727,-0.9,0.0,6.283185307179586,0.43032370670690284,0.38348889350891113,1.653092622756958,0.0,6.283185307179586,2.11581685899862,1.9826669692993164,-0.02,0.0,6.283185307179586
15.766347885131836,1.8718050510232913,1.843632459640503,2.0,0.0,1.7453292519943295,-0.7212579129639011,-0.6654306215098877,-0.8,0.0,6.283185307179586,-1.0423897648170328,-1.1074031591415405,-1.8,0.0,6.283185307179586,-3.437918193566006,-3.3035527668394984,-0.9,0.0,6.283185307179586,0.4333878486882776,0.38706669211387634,1.653092622756958,0.0,6.283185307179586,2.12379889214029,1.993461012840271,-0.02,0.0,6.283185307179586
15.869926929473877,1.8738485615022134,1.8460204601287842,2.0,0.0,1.7453292519943295,-0.7250918122412175,-0.670252339248993,-0.8,0.0,6.283185307179586,-1.0382544907024145,-1.1015220880508423,-1.8,0.0,6.283185307179586,-3.446449801931406,-3.315751691857809,-0.9,0.0,6.283185307179586,0.43667160632691837,0.3909156322479248,1.653092622756958,0.0,6.283185307179586,2.1323950060497223,2.0050718784332275,-0.02,0.0,6.283185307179586
15.967030048370361,1.8756890247424447,1.8481850624084473,2.0,0.0,1.7453292519943295,-0.7282853008229093,-0.6747294825366517,-0.8,0.0,6.283185307179586,-1.0345490598892153,-1.0963255167007446,-1.8,0.0,6.283185307179586,-3.454136905274973,-3.326296945611471,-0.9,0.0,6.283185307179586,0.4396460540728371,0.394470751285553,1.653092622756958,0.0,6.283185307179586,2.1399369128315935,2.0153942108154297,-0.02,0.0,6.283185307179586
16.069889068603516,1.8776628484806135,1.8505104780197144,2.0,0.0,1.7453292519943295,-0.731901623222261,-0.6794001025012513,-0.8,0.0,6.283185307179586,-1.0306516693824666,-1.0907081365585327,-1.8,0.0,6.283185307179586,-3.4622217965876985,-3.3379532299437464,-0.9,0.0,6.283185307179586,0.44280940685648856,0.3982279896736145,1.653092622756958,0.0,6.283185307179586,2.148046108435327,2.0264365673065186,-0.02,0.0,6.283185307179586
16.16688108444214,1.8794239948476146,1.852574110031128,2.0,0.0,1.7453292519943295,-0.7350885222445143,-0.6836829346469422,-0.8,0.0,6.283185307179586,-1.0271441469797484,-1.0857294797897339,-1.8,0.0,6.283185307179586,-3.469505685280227,-3.3483106098570765,-0.9,0.0,6.283185307179586,0.4456945438096209,0.4017147719860077,1.653092622756958,0.0,6.283185307179586,2.1553173663729113,2.036470413208008,-0.02,0.0,6.283185307179586
16.269129991531372,1.8812985197943881,1.854799747467041,2.0,0.0,1.7453292519943295,-0.7384207969497996,-0.6881286066821595,-0.8,0.0,6.283185307179586,-1.0235125591508372,-1.0804574489593506,-1.8,0.0,6.283185307179586,-3.4769938811409316,-3.35904659847402,-0.9,0.0,6.283185307179586,0.4487184579279362,0.40540003776550293,1.653092622756958,0.0,6.283185307179586,2.1629147413048044,2.046992778778076,-0.02,0.0,6.283185307179586
16.36903405189514,1.8830475807133262,1.8568923473358154,2.0,0.0,1.7453292519943295,-0.7414212313552698,-0.6922630828670044,-0.8,0.0,6.283185307179586,-1.0201796963812282,-1.0757513046264648,-1.8,0.0,6.283185307179586,-3.4840067021695127,-3.369035383264059,-0.9,0.0,6.283185307179586,0.4515042126445546,0.4087880253791809,1.653092622756958,0.0,6.283185307179586,2.1697917220591174,2.0565025806427,-0.02,0.0,6.283185307179586
16.470134019851685,1.884885303441987,1.8590939044952393,2.0,0.0,1.7453292519943295,-0.7446747049858882,-0.6965626639178772,-0.8,0.0,6.283185307179586,-1.0167085880569957,-1.0706579685211182,-1.8,0.0,6.283185307179586,-3.491164149606043,-3.3794881306090296,-0.9,0.0,6.283185307179586,0.4544555540695289,0.4124324321746826,1.653092622756958,0.0,6.283185307179586,2.177097041187591,2.066678285598755,-0.02,0.0,6.283185307179586
16.570494890213013,1.886506884530461,1.8610458374023438,2.0,0.0,1.7453292519943295,-0.7474074750064642,-0.7004134815982361,-0.8,0.0,6.283185307179586,-1.0136684872339337,-1.0662463903427124,-1.8,0.0,6.283185307179586,-3.497473300731251,-3.3884717426695765,-0.9,0.0,6.283185307179586,0.4570666639164134,0.41569584608078003,1.653092622756958,0.0,6.283185307179586,2.1834433810466516,2.075601577758789,-0.02,0.0,6.283185307179586
16.669579029083252,1.8883418325866905,1.8632748126983643,2.0,0.0,1.7453292519943295,-0.7504333766259839,-0.7047117513469239,-0.8,0.0,6.283185307179586,-1.0103278549348513,-1.061341404914856,-1.8,0.0,6.283185307179586,-3.504538783878658,-3.398642679254049,-0.9,0.0,6.283185307179586,0.4599569933471105,0.41927769780158997,1.653092622756958,0.0,6.283185307179586,2.190466805289813,2.085439443588257,-0.02,0.0,6.283185307179586
16.769701957702637,1.8899574843912634,1.8652373552322388,2.0,0.0,1.7453292519943295,-0.7531630058926229,-0.7084795397571106,-0.8,0.0,6.283185307179586,-1.0073929527424754,-1.0570021867752075,-1.8,0.0,6.283185307179586,-3.5106792801154003,-3.4076277218260707,-0.9,0.0,6.283185307179586,0.4625278921617038,0.42250606417655945,1.653092622756958,0.0,6.283185307179586,2.1966718695675254,2.094172954559326,-0.02,0.0,6.283185307179586
16.87090492248535,1.8916170515055157,1.8672596216201782,2.0,0.0,1.7453292519943295,-0.7558764853064354,-0.7123783391765137,-0.8,0.0,6.283185307179586,-1.0044006061336659,-1.052613615989685,-1.8,0.0,6.283185307179586,-3.51696001478999,-3.4166532955565394,-0.9,0.0,6.283185307179586,0.4651805029947006,0.42587709426879883,1.653092622756958,0.0,6.283185307179586,2.203016925742223,2.1031978130340576,-0.02,0.0,6.283185307179586
16.96741795539856,1.8931532128199835,1.8691391944885254,2.0,0.0,1.7453292519943295,-0.7583567210726241,-0.7159869831851502,-0.8,0.0,6.283185307179586,-1.001673080801294,-1.048585057258606,-1.8,0.0,6.283185307179586,-3.5227505041735263,-3.4250265560545863,-0.9,0.0,6.283185307179586,0.4676191396604903,0.42897653579711914,1.653092622756958,0.0,6.283185307179586,2.2088076497176985,2.1114253997802734,-0.02,0.0,6.283185307179586
17.06967806816101,1.8948240384609674,1.8712043762207031,2.0,0.0,1.7453292519943295,-0.761055543208082,-0.7197621029666443,-0.8,0.0,6.283185307179586,-0.9987838821677385,-1.0443850755691528,-1.8,0.0,6.283185307179586,-3.5289176337515498,-3.4340836010374964,-0.9,0.0,6.283185307179586,0.47022459630596924,0.43229246139526367,1.653092622756958,0.0,6.283185307179586,2.214979732191868,2.1201727390289307,-0.02,0.0,6.283185307179586
17.16959500312805,1.8963789397908843,1.8731452226638794,2.0,0.0,1.7453292519943295,-0.7635067307231551,-0.7232469481280823,-0.8,0.0,6.283185307179586,-0.9961460833975556,-1.0403612852096558,-1.8,0.0,6.283185307179586,-3.5344530095047304,-3.4422151050963343,-0.9,0.0,6.283185307179586,0.4726280616064155,0.43538230657577515,1.653092622756958,0.0,6.283185307179586,2.2206761037725182,2.128305435180664,-0.02,0.0,6.283185307179586
17.27026605606079,1.897901211506865,1.8750262260437012,2.0,0.0,1.7453292519943295,-0.765872309965984,-0.7268294256976624,-0.8,0.0,6.283185307179586,-0.9935214145321108,-1.0364285707473755,-1.8,0.0,6.283185307179586,-3.5400471643095277,-3.450271268884176,-0.9,0.0,6.283185307179586,0.47505040126461745,0.43853408098220825,1.653092622756958,0.0,6.283185307179586,2.226316834423709,2.136434316635132,-0.02,0.0,6.283185307179586
17.367223024368286,1.8993730367118797,1.8768689632415771,2.0,0.0,1.7453292519943295,-0.7681591555452693,-0.7301505368999024,-0.8,0.0,6.283185307179586,-0.9910587469922422,-1.032720685005188,-1.8,0.0,6.283185307179586,-3.5452880666583537,-3.4579864941039027,-0.9,0.0,6.283185307179586,0.47733647750690844,0.4415084719657898,1.653092622756958,0.0,6.283185307179586,2.231610391314874,2.144010543823242,-0.02,0.0,6.283185307179586
17.467472076416016,1.900898287701006,1.8787977695465088,2.0,0.0,1.7453292519943295,-0.7705131398548712,-0.7334916752627869,-0.8,0.0,6.283185307179586,-0.9885810800880573,-1.0289041996002197,-1.8,0.0,6.283185307179586,-3.5505706785024147,-3.465893884698385,-0.9,0.0,6.283185307179586,0.4796551513511113,0.4445180892944336,1.653092622756958,0.0,6.283185307179586,2.237019586865642,2.1517441272735596,-0.02,0.0,6.283185307179586
17.56927990913391,1.9022325812589964,1.8804550170898438,2.0,0.0,1.7453292519943295,-0.7726549123385595,-0.7365921896747132,-0.8,0.0,6.283185307179586,-0.9863168051431161,-1.0254842042922974,-1.8,0.0,6.283185307179586,-3.5553362667275388,-3.472968717614645,-0.9,0.0,6.283185307179586,0.48180665411955104,0.4473912715911865,1.653092622756958,0.0,6.283185307179586,2.2419286417882156,2.1588683128356934,-0.02,0.0,6.283185307179586
17.670371055603027,1.9037124751420642,1.882336974143982,2.0,0.0,1.7453292519943295,-0.7746830148235611,-0.7399279040149231,-0.8,0.0,6.283185307179586,-0.9839808935997526,-1.021959662437439,-1.8,0.0,6.283185307179586,-3.560540898268649,-3.4803205929198207,-0.9,0.0,6.283185307179586,0.4840433887027021,0.45031359791755676,1.653092622756958,0.0,6.283185307179586,2.2470864574857887,2.166351079940796,-0.02,0.0,6.283185307179586
17.76897692680359,1.9050928556518425,1.8841066360473633,2.0,0.0,1.7453292519943295,-0.7767782799799495,-0.7428541344455262,-0.8,0.0,6.283185307179586,-0.9817957690651163,-1.0186548233032227,-1.8,0.0,6.283185307179586,-3.565125673022658,-3.487202306787008,-0.9,0.0,6.283185307179586,0.48614358402271257,0.4531233310699463,1.653092622756958,0.0,6.283185307179586,2.2518329698485844,2.1731908321380615,-0.02,0.0,6.283185307179586
17.867454051971436,1.9064511496954848,1.8858191967010498,2.0,0.0,1.7453292519943295,-0.7788197087726231,-0.7459527415088196,-0.8,0.0,6.283185307179586,-0.9796199275310292,-1.015371322631836,-1.8,0.0,6.283185307179586,-3.569907588686699,-3.4942790470519007,-0.9,0.0,6.283185307179586,0.4882721677098047,0.45596951246261597,1.653092622756958,0.0,6.283185307179586,2.2566345498571088,2.18015718460083,-0.02,0.0,6.283185307179586
17.966300010681152,1.9077314443004327,1.8874653577804565,2.0,0.0,1.7453292519943295,-0.7807406505874035,-0.7486589115909119,-0.8,0.0,6.283185307179586,-0.9776523281203366,-1.0123395919799805,-1.8,0.0,6.283185307179586,-3.5741337475954817,-3.5006796322264613,-0.9,0.0,6.283185307179586,0.4902063245516876,0.4585605561733246,1.653092622756958,0.0,6.283185307179586,2.261059337321196,2.1865758895874023,-0.02,0.0,6.283185307179586
18.067856073379517,1.9091282402212304,1.889283299446106,2.0,0.0,1.7453292519943295,-0.7826746392638809,-0.7515886586955567,-0.8,0.0,6.283185307179586,-0.9755587406895033,-1.0090888738632202,-1.8,0.0,6.283185307179586,-3.5786534991672223,-3.5073114834227503,-0.9,0.0,6.283185307179586,0.4922726627182139,0.46133488416671753,1.653092622756958,0.0,6.283185307179586,2.2657300920989525,2.1933703422546387,-0.02,0.0,6.283185307179586
18.16823410987854,1.9103479471802645,1.8908624649047852,2.0,0.0,1.7453292519943295,-0.7844067025026296,-0.7542004150203248,-0.8,0.0,6.283185307179586,-0.9737201687823226,-1.0062114000320435,-1.8,0.0,6.283185307179586,-3.5826420190194734,-3.513244768182272,-0.9,0.0,6.283185307179586,0.494106237965341,0.46381258964538574,1.653092622756958,0.0,6.283185307179586,2.2698488090436117,2.199369430541992,-0.02,0.0,6.283185307179586
18.267105102539062,1.9116151408643316,1.8924843072891235,2.0,0.0,1.7453292519943295,-0.7862621261630701,-0.7570179861835022,-0.8,0.0,6.283185307179586,-0.9717743468576184,-1.003221869468689,-1.8,0.0,6.283185307179586,-3.5869109812142526,-3.519618173638815,-0.9,0.0,6.283185307179586,0.496076797165609,0.4665103256702423,1.653092622756958,0.0,6.283185307179586,2.274215286391362,2.205756425857544,-0.02,0.0,6.283185307179586
18.369389057159424,1.91280262405528,1.8940346240997314,2.0,0.0,1.7453292519943295,-0.7879630408656088,-0.7594730418971558,-0.8,0.0,6.283185307179586,-0.9700342612542755,-1.000509262084961,-1.8,0.0,6.283185307179586,-3.5906921016750015,-3.525360246697897,-0.9,0.0,6.283185307179586,0.4978438232653888,0.4689190983772278,1.653092622756958,0.0,6.283185307179586,2.278158907932571,2.211493968963623,-0.02,0.0,6.283185307179586
18.46622896194458,1.9140553225520553,1.8956693410873413,2.0,0.0,1.7453292519943295,-0.7897075057998526,-0.7621076268008729,-0.8,0.0,6.283185307179586,-0.9682167730341671,-0.9976614713668823,-1.8,0.0,6.283185307179586,-3.5947180986916263,-3.531400342980856,-0.9,0.0,6.283185307179586,0.4997098748447277,0.4714661240577698,1.653092622756958,0.0,6.283185307179586,2.282320321980193,2.217571973800659,-0.02,0.0,6.283185307179586
18.56769299507141,1.9151661602240135,1.897118091583252,2.0,0.0,1.7453292519943295,-0.7912906929553418,-0.7644480031779786,-0.8,0.0,6.283185307179586,-0.9665978785725107,-0.9950928092002869,-1.8,0.0,6.283185307179586,-3.598249348386232,-3.5367547474303187,-0.9,0.0,6.283185307179586,0.5013839350024296,0.47377586364746094,1.653092622756958,0.0,6.283185307179586,2.2860506352075074,2.223050355911255,-0.02,0.0,6.283185307179586
18.67012310028076,1.916372689893153,1.8987083435058594,2.0,0.0,1.7453292519943295,-0.7929100481346223,-0.7669196885875245,-0.8,0.0,6.283185307179586,-0.9648769628493128,-0.992491602897644,-1.8,0.0,6.283185307179586,-3.6020269725829026,-3.5423108539977015,-0.9,0.0,6.283185307179586,0.5031807115592685,0.4762784242630005,1.653092622756958,0.0,6.283185307179586,2.2899444290788935,2.228759288787842,-0.02,0.0,6.283185307179586
18.76779007911682,1.9174399335103314,1.9001134634017944,2.0,0.0,1.7453292519943295,-0.7943896864242552,-0.7691272658160706,-0.8,0.0,6.283185307179586,-0.9633647876174001,-0.9900515675544739,-1.8,0.0,6.283185307179586,-3.6053365991921367,-3.547342916528219,-0.9,0.0,6.283185307179586,0.5047639798250326,0.47847217321395874,1.653092622756958,0.0,6.283185307179586,2.2934504256644144,2.2339086532592773,-0.02,0.0,6.283185307179586
18.870599031448364,1.918604945290279,1.901660442352295,2.0,0.0,1.7453292519943295,-0.7959093215951805,-0.7714520853808899,-0.8,0.0,6.283185307179586,-0.9617887858146671,-0.9876420497894287,-1.8,0.0,6.283185307179586,-3.6089546472441865,-3.552741666833395,-0.9,0.0,6.283185307179586,0.5064477215394338,0.480794221162796,1.653092622756958,0.0,6.283185307179586,2.297143455897606,2.239295244216919,-0.02,0.0,6.283185307179586
18.967959880828857,1.9196449271681686,1.9030451774597168,2.0,0.0,1.7453292519943295,-0.797358844615267,-0.773457483654358,-0.8,0.0,6.283185307179586,-0.9603825573955264,-0.9854532480239868,-1.8,0.0,6.283185307179586,-3.6120750453277486,-3.5575858555235804,-0.9,0.0,6.283185307179586,0.5079576685766375,0.4828992486000061,1.653092622756958,0.0,6.283185307179586,2.300484562268058,2.2441837787628174,-0.02,0.0,6.283185307179586
19.069380044937134,1.9207121660054238,1.9044501781463623,2.0,0.0,1.7453292519943295,-0.7987765396129741,-0.7757248443416138,-0.8,0.0,6.283185307179586,-0.9589065573769893,-0.9830597043037415,-1.8,0.0,6.283185307179586,-3.615430865212074,-3.5626164875426234,-0.9,0.0,6.283185307179586,0.5095501436072489,0.48512542247772217,1.653092622756958,0.0,6.283185307179586,2.3039717748040167,2.249329090118408,-0.02,0.0,6.283185307179586
19.166665077209473,1.9217050788871763,1.905773639678955,2.0,0.0,1.7453292519943295,-0.8000535907978421,-0.7777063411525269,-0.8,0.0,6.283185307179586,-0.9575786458391069,-0.981026291847229,-1.8,0.0,6.283185307179586,-3.6184566946285366,-3.5670939884581507,-0.9,0.0,6.283185307179586,0.5110039258000674,0.4871746599674225,1.653092622756958,0.0,6.283185307179586,2.307114917126214,2.2539587020874023,-0.02,0.0,6.283185307179586
19.269495964050293,1.922777151773831,1.9072288274765015,2.0,0.0,1.7453292519943295,-0.80146109137477,-0.7796759170344849,-0.8,0.0,6.283185307179586,-0.956191089491291,-0.978778064250946,-1.8,0.0,6.283185307179586,-3.6214759133655012,-3.571763654748434,-0.9,0.0,6.283185307179586,0.5125047064585473,0.48927628993988037,1.653092622756958,0.0,6.283185307179586,2.3104178990017483,2.258800983428955,-0.02,0.0,6.283185307179586
19.368207931518555,1.9236885510759438,1.9084402322769165,2.0,0.0,1.7453292519943295,-0.802690288439176,-0.7815332573703309,-0.8,0.0,6.283185307179586,-0.9549589590524723,-0.9768118858337402,-1.8,0.0,6.283185307179586,-3.62423381992596,-3.5759693584837855,-0.9,0.0,6.283185307179586,0.5138638794040309,0.49121424555778503,1.653092622756958,0.0,6.283185307179586,2.3133323871329075,2.2630999088287354,-0.02,0.0,6.283185307179586
19.46652889251709,1.9246855285632165,1.909775733947754,2.0,0.0,1.7453292519943295,-0.8039258500236147,-0.783516065483429,-0.8,0.0,6.283185307179586,-0.9536798792446659,-0.9748116731643677,-1.8,0.0,6.283185307179586,-3.6272536372045625,-3.5804439983763636,-0.9,0.0,6.283185307179586,0.5153033308143466,0.4932447075843811,1.653092622756958,0.0,6.283185307179586,2.31645551093953,2.2677042484283447,-0.02,0.0,6.283185307179586
19.56813406944275,1.925599301884032,1.911014437675476,2.0,0.0,1.7453292519943295,-0.8050627929332471,-0.7852392953685303,-0.8,0.0,6.283185307179586,-0.952541366326331,-0.9729777574539185,-1.8,0.0,6.283185307179586,-3.6298984743851017,-3.584463735620016,-0.9,0.0,6.283185307179586,0.5165814473632286,0.495037704706192,1.653092622756958,0.0,6.283185307179586,2.3192543606142073,2.2718114852905273,-0.02,0.0,6.283185307179586
19.670511960983276,1.9265390041056427,1.9122769832611084,2.0,0.0,1.7453292519943295,-0.8063368985307846,-0.7870788139155884,-0.8,0.0,6.283185307179586,-0.9513079193138217,-0.9709646105766296,-1.8,0.0,6.283185307179586,-3.632618341199455,-3.5887052021422328,-0.9,0.0,6.283185307179586,0.5179624807287116,0.49702462553977966,1.653092622756958,0.0,6.283185307179586,2.3222124067796917,2.2761788368225098,-0.02,0.0,6.283185307179586
19.769115924835205,1.927408827106848,1.9134570360183716,2.0,0.0,1.7453292519943295,-0.8073460500544499,-0.7887494128993531,-0.8,0.0,6.283185307179586,-0.9502431999297877,-0.9692990183830261,-1.8,0.0,6.283185307179586,-3.635171891115946,-3.5924345455565394,-0.9,0.0,6.283185307179586,0.5191866854432863,0.49875855445861816,1.653092622756958,0.0,6.283185307179586,2.3248432113293642,2.280054807662964,-0.02,0.0,6.283185307179586
19.86986494064331,1.9283218905066584,1.9146978855133057,2.0,0.0,1.7453292519943295,-0.8084825542291891,-0.7904690665057679,-0.8,0.0,6.283185307179586,-0.9491185858820644,-0.9674842953681946,-1.8,0.0,6.283185307179586,-3.637780103692626,-3.596412797967428,-0.9,0.0,6.283185307179586,0.5204763960270717,0.5005970001220703,1.653092622756958,0.0,6.283185307179586,2.327623420340106,2.284146547317505,-0.02,0.0,6.283185307179586
19.96893811225891,1.9291160096833293,1.915771484375,2.0,0.0,1.7453292519943295,-0.809507299332584,-0.7919891637614747,-0.8,0.0,6.283185307179586,-0.9481298847043126,-0.9658634662628174,-1.8,0.0,6.283185307179586,-3.640056673952978,-3.599924226800436,-0.9,0.0,6.283185307179586,0.521619571445815,0.5022404193878174,1.653092622756958,0.0,6.283185307179586,2.3301220028967964,2.287858486175537,-0.02,0.0,6.283185307179586
